(/Applications/pcbgcode.repo/pcb-gcode.ulp)
(Copyright 2005 - 2012 by John Johnson)
(See readme.txt for licensing terms.)
(This file generated from the board:)
(.../pt2399_echo/eagle/pt2399_echo.brd)
(Current profile is .../pcbgcode.repo/profiles/mach.pp  )
(This file generated 7/4/16 1:10 PM)
(Settings from pcb-machine.h)
(spindle on time = 0.0000)
(spindle speed = 15000.0000)
(milling depth = -0.0700)
(tool change at 0.0000  0.0000  1.5000  )
(feed rate xy = F10    )
(feed rate z  = F5     )
(Z Axis Settings)
(  High     Up        Down     Drill)
(0.2500  	0.0500  	-0.0035 	-0.0750 )
(Settings from pcb-defaults.h)
(isolate min = 0.0050)
(isolate max = 0.0200)
(isolate step = 0.0010)
(Generated bottom outlines, bottom drill, )
(Unit of measure: inch)
(Inch Mode)
G20
(Absolute Coordinates)
G90
S15000
G00 Z0.2500  
G00 X0.0000  Y0.0000  
M03
G04 P0.000000
G00 Z0.0500  
G00 X0.0500  Y-0.0200 
G01 Z-0.0700 F5     
G01 X1.8200  Y-0.0200 F10    
G01 X1.8700  Y0.0500  
G01 X1.8700  Y3.0500  
G01 X1.8200  Y3.1300  
G01 X0.0500  Y3.1300  
G01 X-0.0300 Y3.0500  
G01 X-0.0300 Y0.0500  
G01 X0.0500  Y-0.0200 
G00 Z0.0500  
G00 X1.6900  Y0.5200  
G01 Z-0.0700 F5     
G01 X1.7600  Y0.5200  F10    
G01 X1.7600  Y0.5900  
G00 Z0.0500  
G00 X1.7600  Y0.6000  
G01 Z-0.0700 F5     
G01 X1.6900  Y0.6000  F10    
G01 X1.6900  Y0.5200  
G00 Z0.0500  
G00 X0.3900  Y1.7200  
G01 Z-0.0700 F5     
G01 X0.3900  Y1.7900  F10    
G00 Z0.0500  
G00 X0.3900  Y1.8000  
G01 Z-0.0700 F5     
G01 X0.3200  Y1.8000  F10    
G01 X0.3200  Y1.7200  
G01 X0.3900  Y1.7200  
G00 Z0.0500  
G00 X1.6500  Y2.9100  
G01 Z-0.0700 F5     
G01 X1.7200  Y2.9100  F10    
G01 X1.7200  Y2.9800  
G00 Z0.0500  
G00 X1.7200  Y2.9900  
G01 Z-0.0700 F5     
G01 X1.6500  Y2.9900  F10    
G01 X1.6500  Y2.9100  
G00 Z0.2500  
M05
M02
