(/Applications/pcbgcode.repo/pcb-gcode.ulp)
(Copyright 2005 - 2012 by John Johnson)
(See readme.txt for licensing terms.)
(This file generated from the board:)
(.../pt2399_echo/eagle/pt2399_echo.brd)
(Current profile is .../pcbgcode.repo/profiles/mach.pp  )
(This file generated 7/4/16 1:10 PM)
(Settings from pcb-machine.h)
(spindle on time = 0.0000)
(spindle speed = 20000.0000)
(tool change at 0.0000  0.0000  1.5000  )
(feed rate xy = F0     )
(feed rate z  = F20    )
(Z Axis Settings)
(  High     Up        Down     Drill)
(0.2500  	0.0500  	-0.0035 	-0.0750 )
(Settings from pcb-defaults.h)
(isolate min = 0.0050)
(isolate max = 0.0200)
(isolate step = 0.0010)
(Generated bottom outlines, bottom drill, )
(Unit of measure: inch)
( Tool|       Size       |  Min Sub |  Max Sub |   Count )
( T01 | 0.800mm 0.0315in | 0.0000in | 0.0000in |       0 )
( T02 | 0.813mm 0.0320in | 0.0000in | 0.0000in |       0 )
( T03 | 1.016mm 0.0400in | 0.0000in | 0.0000in |       0 )
( T04 | 1.200mm 0.0472in | 0.0000in | 0.0000in |       0 )
( T05 | 1.300mm 0.0512in | 0.0000in | 0.0000in |       0 )
(Inch Mode)
G20
(Absolute Coordinates)
G90
S20000
G00 Z0.2500  
G00 X0.0000  Y0.0000  
M03
G04 P0.000000
M05
G00 Z1.5000  
M06 T01  ; 0.0315  
G01 Z0.0000  F20    
M06 
G00 Z0.0500  
M03
G04 P0.000000
G82 X-0.6500 Y0.1516  Z-0.0750 F20    R0.0500  P0.020000
G82 X-0.6500 Y0.3484  
M05
G00 Z1.5000  
G00 X0.0000  Y0.0000  
M06 T02  ; 0.0320  
G01 Z0.0000  F20    
M06 
G00 Z0.0500  
M03
G04 P0.000000
G82 X-0.3400 Y1.0700  Z-0.0750 F20    R0.0500  P0.020000
G82 X-0.4800 Y0.9600  
G82 X-0.4800 Y0.8600  
G82 X-0.6400 Y1.0700  
G82 X-0.6900 Y1.2200  
G82 X-0.5900 Y1.2200  
G82 X-0.8000 Y1.3500  
G82 X-0.9000 Y1.4500  
G82 X-1.0000 Y1.4500  
G82 X-1.0000 Y1.3500  
G82 X-1.0900 Y1.3500  
G82 X-1.1000 Y1.4500  
G82 X-1.2000 Y1.4500  
G82 X-1.3000 Y1.4500  
G82 X-1.4000 Y1.4500  
G82 X-1.4000 Y1.3500  
G82 X-1.2900 Y1.3500  
G82 X-1.3000 Y1.2000  
G82 X-1.4000 Y1.2000  
G82 X-1.5000 Y1.2000  
G82 X-1.6000 Y1.2000  
G82 X-1.7200 Y1.2000  
G82 X-1.6000 Y1.3500  
G82 X-1.7200 Y1.0000  
G82 X-1.6000 Y0.9000  
G82 X-1.5000 Y0.9000  
G82 X-1.4000 Y0.9000  
G82 X-1.3000 Y0.9000  
G82 X-1.2000 Y0.9000  
G82 X-1.1000 Y0.9000  
G82 X-1.0000 Y0.9000  
G82 X-0.9000 Y0.9000  
G82 X-0.9100 Y0.7300  
G82 X-0.9100 Y0.6300  
G82 X-0.8900 Y0.5300  
G82 X-0.7500 Y0.5000  
G82 X-0.6500 Y0.5000  
G82 X-0.6500 Y0.6500  
G82 X-0.7500 Y0.6500  
G82 X-1.2900 Y0.5300  
G82 X-1.4400 Y0.5600  
G82 X-1.5600 Y0.6000  
G82 X-1.5600 Y0.8000  
G82 X-1.4400 Y0.7600  
G82 X-1.2000 Y1.2000  
G82 X-1.1000 Y1.2000  
G82 X-1.0000 Y1.2000  
G82 X-0.9000 Y1.2000  
G82 X-0.9000 Y1.7500  
G82 X-1.0000 Y1.7500  
G82 X-1.1000 Y1.7500  
G82 X-1.2000 Y1.7500  
G82 X-1.3000 Y1.7500  
G82 X-1.3300 Y1.8400  
G82 X-1.4000 Y1.7500  
G82 X-1.5000 Y1.8000  
G82 X-1.3300 Y2.0400  
G82 X-1.2000 Y2.0500  
G82 X-1.1700 Y1.9000  
G82 X-0.9700 Y1.9000  
G82 X-0.9000 Y1.9000  
G82 X-1.0000 Y2.0500  
G82 X-0.9000 Y2.2000  
G82 X-0.7000 Y2.2000  
G82 X-0.6000 Y2.2000  
G82 X-0.4500 Y2.2500  
G82 X-0.4500 Y2.5500  
G82 X-0.7400 Y2.5100  
G82 X-0.8400 Y2.5100  
G82 X-1.5000 Y2.1000  
M05
G00 Z1.5000  
G00 X0.0000  Y0.0000  
M06 T03  ; 0.0400  
G01 Z0.0000  F20    
M06 
G00 Z0.0500  
M03
G04 P0.000000
G82 X-1.0500 Y0.1500  Z-0.0750 F20    R0.0500  P0.020000
G82 X-1.1500 Y0.1500  
G82 X-1.1500 Y0.2500  
G82 X-1.0500 Y0.2500  
G82 X-1.2500 Y0.2500  
G82 X-1.2500 Y0.1500  
G82 X-1.3500 Y0.1500  
G82 X-1.4500 Y0.1500  
G82 X-1.4500 Y0.2500  
G82 X-1.3500 Y0.2500  
G82 X-1.5500 Y0.2500  
G82 X-1.6500 Y0.2500  
G82 X-1.6500 Y0.1500  
G82 X-1.5500 Y0.1500  
G82 X-1.7500 Y0.1500  
G82 X-1.7500 Y0.2500  
M05
G00 Z1.5000  
G00 X0.0000  Y0.0000  
M06 T04  ; 0.0472  
G01 Z0.0000  F20    
M06 
G00 Z0.0500  
M03
G04 P0.000000
G82 X-0.1500 Y0.1531  Z-0.0750 F20    R0.0500  P0.020000
G82 X-0.1500 Y0.3500  
G82 X-0.1500 Y0.5469  
G82 X-0.1500 Y0.9031  
G82 X-0.1500 Y1.1000  
G82 X-0.1500 Y1.2969  
G82 X-0.1500 Y2.1031  
G82 X-0.1500 Y2.3000  
G82 X-0.1500 Y2.4969  
M05
G00 Z1.5000  
G00 X0.0000  Y0.0000  
M06 T05  ; 0.0512  
G01 Z0.0000  F20    
M06 
G00 Z0.0500  
M03
G04 P0.000000
G82 X-0.0980 Y1.6730  Z-0.0750 F20    R0.0500  P0.020000
G82 X-0.0984 Y1.7069  
G82 X-0.0980 Y1.7400  
G82 X-0.4980 Y1.5020  
G82 X-0.5315 Y1.5021  
G82 X-0.5650 Y1.5020  
G82 X-0.6180 Y1.6740  
G82 X-0.6181 Y1.7069  
G82 X-0.6180 Y1.7400  
G82 X-0.5650 Y2.6920  
G82 X-0.5315 Y2.6921  
G82 X-0.4980 Y2.6920  
G82 X-0.6180 Y2.8640  
G82 X-0.6181 Y2.8969  
G82 X-0.6180 Y2.9300  
G82 X-0.0980 Y2.9300  
G82 X-0.0984 Y2.8969  
G82 X-0.0980 Y2.8630  
T01 
G00 Z0.2500  
M05
M02
