(/Applications/pcbgcode.repo/pcb-gcode.ulp)
(Copyright 2005 - 2012 by John Johnson)
(See readme.txt for licensing terms.)
(This file generated from the board:)
(.../pt2399_echo/eagle/pt2399_echo.brd)
(Current profile is .../pcbgcode.repo/profiles/mach.pp  )
(This file generated 7/4/16 1:08 PM)
(Settings from pcb-machine.h)
(spindle on time = 0.0000)
(  Tool Size)
(0.0030  )
(spindle speed = 30000.0000)
(tool change at 0.0000  0.0000  1.5000  )
(feed rate xy = F20    )
(feed rate z  = F10    )
(Z Axis Settings)
(  High     Up        Down     Drill)
(0.2500  	0.0500  	-0.0035 	-0.0750 )
(Settings from pcb-defaults.h)
(isolate min = 0.0050)
(isolate max = 0.0200)
(isolate step = 0.0010)
(Generated bottom outlines, bottom drill, )
(Unit of measure: inch)
(Inch Mode)
G20
(Absolute Coordinates)
G90
S30000
G00 Z0.2500  
G00 X0.0000  Y0.0000  
M03
G04 P0.000000
G00 Z0.0500  
G00 X-0.1122 Y0.1209  
G01 Z-0.0035 F10    
G01 X-0.1077 Y0.1272  F20    
G01 X-0.1041 Y0.1341  
G01 X-0.1017 Y0.1416  
G01 X-0.1005 Y0.1493  
G01 X-0.1005 Y0.1570  
G01 X-0.1017 Y0.1647  
G01 X-0.1041 Y0.1722  
G01 X-0.1077 Y0.1791  
G01 X-0.1122 Y0.1854  
G01 X-0.1178 Y0.1909  
G01 X-0.1241 Y0.1955  
G01 X-0.1310 Y0.1990  
G01 X-0.1384 Y0.2014  
G01 X-0.1414 Y0.2019  
G01 X-0.2066 Y0.2526  
G01 X-0.2032 Y0.2593  
G01 X-0.1609 Y0.3016  
G01 X-0.1539 Y0.3005  
G01 X-0.1461 Y0.3005  
G01 X-0.1384 Y0.3017  
G01 X-0.1310 Y0.3041  
G01 X-0.1241 Y0.3077  
G01 X-0.1178 Y0.3122  
G01 X-0.1122 Y0.3178  
G01 X-0.1077 Y0.3241  
G01 X-0.1041 Y0.3310  
G01 X-0.1017 Y0.3384  
G01 X-0.1005 Y0.3461  
G01 X-0.1005 Y0.3539  
G01 X-0.1017 Y0.3616  
G01 X-0.1041 Y0.3690  
G01 X-0.1077 Y0.3759  
G01 X-0.1122 Y0.3822  
G01 X-0.1178 Y0.3878  
G01 X-0.1241 Y0.3923  
G01 X-0.1310 Y0.3959  
G01 X-0.1384 Y0.3983  
G01 X-0.1461 Y0.3995  
G01 X-0.1539 Y0.3995  
G01 X-0.1616 Y0.3983  
G01 X-0.1690 Y0.3959  
G01 X-0.1759 Y0.3923  
G01 X-0.1822 Y0.3878  
G01 X-0.1878 Y0.3822  
G01 X-0.1923 Y0.3759  
G01 X-0.1959 Y0.3690  
G01 X-0.1983 Y0.3616  
G01 X-0.1995 Y0.3539  
G01 X-0.1995 Y0.3461  
G01 X-0.1984 Y0.3391  
G01 X-0.2431 Y0.2944  
G01 X-0.2443 Y0.2933  
G01 X-0.2449 Y0.2926  
G01 X-0.2456 Y0.2919  
G01 X-0.2465 Y0.2905  
G01 X-0.2475 Y0.2892  
G01 X-0.2480 Y0.2883  
G01 X-0.2485 Y0.2876  
G01 X-0.2491 Y0.2860  
G01 X-0.2564 Y0.2715  
G01 X-0.6790 Y0.2715  
G01 X-0.7584 Y0.3509  
G01 X-0.8575 Y0.5391  
G01 X-0.8575 Y0.5435  
G01 X-0.8765 Y0.5625  
G01 X-0.9035 Y0.5625  
G01 X-0.9225 Y0.5435  
G01 X-0.9225 Y0.5165  
G01 X-0.9035 Y0.4975  
G01 X-0.8955 Y0.4975  
G01 X-0.8040 Y0.3237  
G01 X-0.8035 Y0.3224  
G01 X-0.8028 Y0.3214  
G01 X-0.8022 Y0.3203  
G01 X-0.8014 Y0.3193  
G01 X-0.8006 Y0.3181  
G01 X-0.7997 Y0.3172  
G01 X-0.7989 Y0.3163  
G01 X-0.7979 Y0.3154  
G01 X-0.7106 Y0.2281  
G01 X-0.7069 Y0.2244  
G01 X-0.7026 Y0.2215  
G01 X-0.6977 Y0.2195  
G01 X-0.6926 Y0.2185  
G01 X-0.2491 Y0.2185  
G01 X-0.1941 Y0.1757  
G01 X-0.1959 Y0.1722  
G01 X-0.1983 Y0.1647  
G01 X-0.1995 Y0.1570  
G01 X-0.1995 Y0.1493  
G01 X-0.1983 Y0.1416  
G01 X-0.1959 Y0.1341  
G01 X-0.1923 Y0.1272  
G01 X-0.1878 Y0.1209  
G01 X-0.1822 Y0.1154  
G01 X-0.1759 Y0.1108  
G01 X-0.1690 Y0.1073  
G01 X-0.1616 Y0.1049  
G01 X-0.1539 Y0.1036  
G01 X-0.1461 Y0.1036  
G01 X-0.1384 Y0.1049  
G01 X-0.1310 Y0.1073  
G01 X-0.1241 Y0.1108  
G01 X-0.1178 Y0.1154  
G01 X-0.1122 Y0.1209  
G00 Z0.0500  
G00 X-0.1122 Y0.5146  
G01 Z-0.0035 F10    
G01 X-0.1077 Y0.5209  F20    
G01 X-0.1041 Y0.5278  
G01 X-0.1017 Y0.5353  
G01 X-0.1005 Y0.5430  
G01 X-0.1005 Y0.5507  
G01 X-0.1017 Y0.5584  
G01 X-0.1041 Y0.5659  
G01 X-0.1077 Y0.5728  
G01 X-0.1122 Y0.5791  
G01 X-0.1178 Y0.5846  
G01 X-0.1241 Y0.5892  
G01 X-0.1310 Y0.5927  
G01 X-0.1384 Y0.5951  
G01 X-0.1461 Y0.5964  
G01 X-0.1539 Y0.5964  
G01 X-0.1616 Y0.5951  
G01 X-0.1690 Y0.5927  
G01 X-0.1759 Y0.5892  
G01 X-0.1822 Y0.5846  
G01 X-0.1878 Y0.5791  
G01 X-0.1919 Y0.5734  
G01 X-0.2859 Y0.5734  
G01 X-0.7494 Y1.0369  
G01 X-0.7531 Y1.0406  
G01 X-0.7574 Y1.0435  
G01 X-0.7623 Y1.0455  
G01 X-0.7674 Y1.0465  
G01 X-1.1698 Y1.0465  
G01 X-1.1723 Y1.0465  
G01 X-1.1724 Y1.0465  
G01 X-1.1726 Y1.0465  
G01 X-1.1750 Y1.0460  
G01 X-1.1774 Y1.0456  
G01 X-1.1776 Y1.0455  
G01 X-1.1777 Y1.0455  
G01 X-1.1800 Y1.0445  
G01 X-1.1823 Y1.0436  
G01 X-1.1824 Y1.0435  
G01 X-1.1826 Y1.0435  
G01 X-1.1846 Y1.0421  
G01 X-1.1866 Y1.0408  
G01 X-1.1868 Y1.0407  
G01 X-1.1869 Y1.0406  
G01 X-1.1886 Y1.0389  
G01 X-1.1904 Y1.0371  
G01 X-1.1905 Y1.0370  
G01 X-1.1906 Y1.0369  
G01 X-1.1919 Y1.0349  
G01 X-1.1933 Y1.0328  
G01 X-1.1934 Y1.0327  
G01 X-1.1935 Y1.0326  
G01 X-1.1944 Y1.0303  
G01 X-1.2234 Y0.9627  
G01 X-1.2235 Y0.9626  
G01 X-1.2244 Y0.9603  
G01 X-1.2254 Y0.9580  
G01 X-1.2254 Y0.9579  
G01 X-1.2255 Y0.9577  
G01 X-1.2260 Y0.9553  
G01 X-1.2265 Y0.9529  
G01 X-1.2265 Y0.9528  
G01 X-1.2265 Y0.9526  
G01 X-1.2265 Y0.9502  
G01 X-1.2265 Y0.9477  
G01 X-1.2265 Y0.9476  
G01 X-1.2265 Y0.9448  
G01 X-1.2288 Y0.9414  
G01 X-1.2313 Y0.9355  
G01 X-1.2325 Y0.9292  
G01 X-1.2325 Y0.8708  
G01 X-1.2313 Y0.8645  
G01 X-1.2288 Y0.8586  
G01 X-1.2252 Y0.8533  
G01 X-1.2225 Y0.8505  
G01 X-1.2165 Y0.7786  
G01 X-1.2164 Y0.7768  
G01 X-1.2163 Y0.7760  
G01 X-1.2162 Y0.7752  
G01 X-1.2157 Y0.7735  
G01 X-1.1765 Y0.5971  
G01 X-1.1765 Y0.5110  
G01 X-1.2118 Y0.4756  
G01 X-1.4511 Y0.4565  
G01 X-1.4526 Y0.4565  
G01 X-1.4537 Y0.4563  
G01 X-1.4547 Y0.4562  
G01 X-1.4562 Y0.4558  
G01 X-1.4577 Y0.4555  
G01 X-1.4587 Y0.4551  
G01 X-1.4597 Y0.4548  
G01 X-1.4611 Y0.4541  
G01 X-1.4626 Y0.4535  
G01 X-1.4634 Y0.4529  
G01 X-1.4644 Y0.4524  
G01 X-1.4656 Y0.4514  
G01 X-1.4669 Y0.4506  
G01 X-1.4676 Y0.4498  
G01 X-1.4685 Y0.4492  
G01 X-1.4695 Y0.4480  
G01 X-1.5487 Y0.3688  
G01 X-1.5506 Y0.3669  
G01 X-1.5520 Y0.3647  
G01 X-1.5535 Y0.3626  
G01 X-1.5545 Y0.3602  
G01 X-1.5555 Y0.3578  
G01 X-1.5560 Y0.3552  
G01 X-1.5684 Y0.2931  
G01 X-1.5750 Y0.2865  
G01 X-1.6165 Y0.2865  
G01 X-1.5437 Y0.4622  
G01 X-1.4416 Y0.5275  
G01 X-1.4265 Y0.5275  
G01 X-1.4075 Y0.5465  
G01 X-1.4075 Y0.5735  
G01 X-1.4265 Y0.5925  
G01 X-1.4535 Y0.5925  
G01 X-1.4725 Y0.5735  
G01 X-1.4725 Y0.5707  
G01 X-1.5385 Y0.5284  
G01 X-1.5385 Y0.5755  
G01 X-1.5275 Y0.5865  
G01 X-1.5275 Y0.6135  
G01 X-1.5335 Y0.6195  
G01 X-1.5335 Y0.7026  
G01 X-1.5345 Y0.7077  
G01 X-1.5365 Y0.7126  
G01 X-1.5394 Y0.7169  
G01 X-1.5431 Y0.7206  
G01 X-1.5502 Y0.7277  
G01 X-1.5509 Y0.7285  
G01 X-1.5520 Y0.7295  
G01 X-1.5531 Y0.7306  
G01 X-1.5540 Y0.7312  
G01 X-1.5548 Y0.7319  
G01 X-1.5562 Y0.7326  
G01 X-1.5574 Y0.7335  
G01 X-1.5585 Y0.7339  
G01 X-1.7685 Y0.8506  
G01 X-1.7685 Y1.7207  
G01 X-1.3312 Y2.0075  
G01 X-1.3165 Y2.0075  
G01 X-1.3090 Y2.0150  
G01 X-1.2214 Y2.0218  
G01 X-1.2002 Y1.9158  
G01 X-1.2025 Y1.9135  
G01 X-1.2025 Y1.8865  
G01 X-1.1835 Y1.8675  
G01 X-1.1565 Y1.8675  
G01 X-1.1375 Y1.8865  
G01 X-1.1375 Y1.9135  
G01 X-1.1477 Y1.9237  
G01 X-1.1698 Y2.0342  
G01 X-1.1675 Y2.0365  
G01 X-1.1675 Y2.0635  
G01 X-1.1865 Y2.0825  
G01 X-1.1892 Y2.0825  
G01 X-1.0124 Y2.2985  
G01 X-0.7774 Y2.2985  
G01 X-0.7772 Y2.2985  
G01 X-0.7748 Y2.2985  
G01 X-0.7724 Y2.2985  
G01 X-0.7722 Y2.2985  
G01 X-0.7720 Y2.2985  
G01 X-0.7696 Y2.2991  
G01 X-0.7673 Y2.2995  
G01 X-0.7671 Y2.2996  
G01 X-0.7669 Y2.2996  
G01 X-0.7647 Y2.3006  
G01 X-0.7624 Y2.3015  
G01 X-0.7623 Y2.3016  
G01 X-0.7621 Y2.3017  
G01 X-0.7601 Y2.3031  
G01 X-0.7581 Y2.3044  
G01 X-0.7580 Y2.3046  
G01 X-0.4504 Y2.5175  
G01 X-0.4365 Y2.5175  
G01 X-0.4305 Y2.5235  
G01 X-0.2110 Y2.5235  
G01 X-0.1977 Y2.5102  
G01 X-0.1983 Y2.5084  
G01 X-0.1995 Y2.5007  
G01 X-0.1995 Y2.4930  
G01 X-0.1983 Y2.4853  
G01 X-0.1959 Y2.4778  
G01 X-0.1923 Y2.4709  
G01 X-0.1878 Y2.4646  
G01 X-0.1822 Y2.4591  
G01 X-0.1759 Y2.4545  
G01 X-0.1690 Y2.4510  
G01 X-0.1616 Y2.4486  
G01 X-0.1609 Y2.4485  
G01 X-0.0765 Y2.3640  
G01 X-0.0765 Y2.0813  
G01 X-0.1230 Y1.9883  
G01 X-0.1235 Y1.9876  
G01 X-0.1241 Y1.9860  
G01 X-0.1249 Y1.9845  
G01 X-0.1251 Y1.9836  
G01 X-0.1255 Y1.9827  
G01 X-0.1258 Y1.9811  
G01 X-0.1262 Y1.9795  
G01 X-0.1263 Y1.9785  
G01 X-0.1265 Y1.9776  
G01 X-0.1265 Y1.9759  
G01 X-0.1266 Y1.9743  
G01 X-0.1265 Y1.9733  
G01 X-0.1265 Y1.8060  
G01 X-0.1280 Y1.8052  
G01 X-0.1352 Y1.7999  
G01 X-0.1415 Y1.7937  
G01 X-0.1467 Y1.7865  
G01 X-0.1508 Y1.7785  
G01 X-0.1535 Y1.7701  
G01 X-0.1549 Y1.7613  
G01 X-0.1549 Y1.6524  
G01 X-0.1535 Y1.6436  
G01 X-0.1508 Y1.6352  
G01 X-0.1467 Y1.6272  
G01 X-0.1415 Y1.6200  
G01 X-0.1372 Y1.6157  
G01 X-0.1711 Y1.3416  
G01 X-0.1759 Y1.3392  
G01 X-0.1822 Y1.3346  
G01 X-0.1878 Y1.3291  
G01 X-0.1923 Y1.3228  
G01 X-0.1959 Y1.3159  
G01 X-0.1983 Y1.3084  
G01 X-0.1995 Y1.3007  
G01 X-0.1995 Y1.2930  
G01 X-0.1983 Y1.2853  
G01 X-0.1959 Y1.2778  
G01 X-0.1923 Y1.2709  
G01 X-0.1878 Y1.2646  
G01 X-0.1822 Y1.2591  
G01 X-0.1759 Y1.2545  
G01 X-0.1690 Y1.2510  
G01 X-0.1616 Y1.2486  
G01 X-0.1539 Y1.2474  
G01 X-0.1461 Y1.2474  
G01 X-0.1384 Y1.2486  
G01 X-0.1310 Y1.2510  
G01 X-0.1241 Y1.2545  
G01 X-0.1178 Y1.2591  
G01 X-0.1122 Y1.2646  
G01 X-0.1077 Y1.2709  
G01 X-0.1041 Y1.2778  
G01 X-0.1017 Y1.2853  
G01 X-0.1005 Y1.2930  
G01 X-0.1005 Y1.3007  
G01 X-0.1017 Y1.3084  
G01 X-0.1041 Y1.3159  
G01 X-0.1077 Y1.3228  
G01 X-0.1122 Y1.3291  
G01 X-0.1178 Y1.3346  
G01 X-0.1185 Y1.3352  
G01 X-0.0855 Y1.6017  
G01 X-0.0852 Y1.6017  
G01 X-0.0767 Y1.6045  
G01 X-0.0688 Y1.6085  
G01 X-0.0616 Y1.6138  
G01 X-0.0553 Y1.6200  
G01 X-0.0501 Y1.6272  
G01 X-0.0461 Y1.6352  
G01 X-0.0433 Y1.6436  
G01 X-0.0419 Y1.6524  
G01 X-0.0419 Y1.7613  
G01 X-0.0433 Y1.7701  
G01 X-0.0461 Y1.7785  
G01 X-0.0501 Y1.7865  
G01 X-0.0553 Y1.7937  
G01 X-0.0616 Y1.7999  
G01 X-0.0688 Y1.8052  
G01 X-0.0735 Y1.8076  
G01 X-0.0735 Y1.9687  
G01 X-0.0270 Y2.0617  
G01 X-0.0265 Y2.0624  
G01 X-0.0259 Y2.0640  
G01 X-0.0251 Y2.0655  
G01 X-0.0249 Y2.0664  
G01 X-0.0245 Y2.0673  
G01 X-0.0242 Y2.0689  
G01 X-0.0238 Y2.0705  
G01 X-0.0237 Y2.0715  
G01 X-0.0235 Y2.0724  
G01 X-0.0235 Y2.0741  
G01 X-0.0234 Y2.0757  
G01 X-0.0235 Y2.0767  
G01 X-0.0235 Y2.3776  
G01 X-0.0245 Y2.3827  
G01 X-0.0265 Y2.3876  
G01 X-0.0294 Y2.3919  
G01 X-0.1080 Y2.4705  
G01 X-0.1077 Y2.4709  
G01 X-0.1041 Y2.4778  
G01 X-0.1017 Y2.4853  
G01 X-0.1005 Y2.4930  
G01 X-0.1005 Y2.5007  
G01 X-0.1016 Y2.5078  
G01 X-0.0778 Y2.5315  
G01 X-0.0749 Y2.5359  
G01 X-0.0729 Y2.5407  
G01 X-0.0719 Y2.5458  
G01 X-0.0719 Y2.7969  
G01 X-0.0688 Y2.7985  
G01 X-0.0616 Y2.8038  
G01 X-0.0553 Y2.8100  
G01 X-0.0501 Y2.8172  
G01 X-0.0461 Y2.8252  
G01 X-0.0433 Y2.8336  
G01 X-0.0419 Y2.8424  
G01 X-0.0419 Y2.9513  
G01 X-0.0433 Y2.9601  
G01 X-0.0461 Y2.9685  
G01 X-0.0501 Y2.9765  
G01 X-0.0553 Y2.9837  
G01 X-0.0616 Y2.9899  
G01 X-0.0688 Y2.9952  
G01 X-0.0767 Y2.9992  
G01 X-0.0852 Y3.0020  
G01 X-0.0940 Y3.0034  
G01 X-0.1029 Y3.0034  
G01 X-0.1117 Y3.0020  
G01 X-0.1201 Y2.9992  
G01 X-0.1280 Y2.9952  
G01 X-0.1352 Y2.9899  
G01 X-0.1415 Y2.9837  
G01 X-0.1467 Y2.9765  
G01 X-0.1508 Y2.9685  
G01 X-0.1535 Y2.9601  
G01 X-0.1549 Y2.9513  
G01 X-0.1549 Y2.8424  
G01 X-0.1535 Y2.8336  
G01 X-0.1508 Y2.8252  
G01 X-0.1467 Y2.8172  
G01 X-0.1415 Y2.8100  
G01 X-0.1352 Y2.8038  
G01 X-0.1280 Y2.7985  
G01 X-0.1249 Y2.7969  
G01 X-0.1249 Y2.5594  
G01 X-0.1391 Y2.5452  
G01 X-0.1461 Y2.5464  
G01 X-0.1539 Y2.5464  
G01 X-0.1582 Y2.5457  
G01 X-0.1831 Y2.5706  
G01 X-0.1874 Y2.5735  
G01 X-0.1923 Y2.5755  
G01 X-0.1974 Y2.5765  
G01 X-0.4305 Y2.5765  
G01 X-0.4365 Y2.5825  
G01 X-0.4635 Y2.5825  
G01 X-0.4825 Y2.5635  
G01 X-0.4825 Y2.5597  
G01 X-0.7833 Y2.3515  
G01 X-1.0237 Y2.3515  
G01 X-1.0250 Y2.3516  
G01 X-1.0263 Y2.3515  
G01 X-1.0276 Y2.3515  
G01 X-1.0289 Y2.3512  
G01 X-1.0302 Y2.3511  
G01 X-1.0315 Y2.3507  
G01 X-1.0327 Y2.3505  
G01 X-1.0340 Y2.3500  
G01 X-1.0352 Y2.3496  
G01 X-1.0364 Y2.3490  
G01 X-1.0376 Y2.3485  
G01 X-1.0387 Y2.3477  
G01 X-1.0398 Y2.3471  
G01 X-1.0408 Y2.3463  
G01 X-1.0419 Y2.3456  
G01 X-1.0428 Y2.3446  
G01 X-1.0439 Y2.3438  
G01 X-1.0447 Y2.3428  
G01 X-1.0456 Y2.3419  
G01 X-1.0463 Y2.3408  
G01 X-1.2667 Y2.0714  
G01 X-1.3120 Y2.0680  
G01 X-1.3165 Y2.0725  
G01 X-1.3435 Y2.0725  
G01 X-1.3625 Y2.0535  
G01 X-1.3625 Y2.0504  
G01 X-1.8074 Y1.7585  
G01 X-1.8076 Y1.7585  
G01 X-1.8096 Y1.7571  
G01 X-1.8117 Y1.7557  
G01 X-1.8119 Y1.7556  
G01 X-1.8137 Y1.7538  
G01 X-1.8154 Y1.7521  
G01 X-1.8156 Y1.7519  
G01 X-1.8170 Y1.7498  
G01 X-1.8184 Y1.7478  
G01 X-1.8184 Y1.7476  
G01 X-1.8194 Y1.7452  
G01 X-1.8204 Y1.7429  
G01 X-1.8204 Y1.7428  
G01 X-1.8205 Y1.7427  
G01 X-1.8210 Y1.7403  
G01 X-1.8215 Y1.7378  
G01 X-1.8215 Y1.7377  
G01 X-1.8215 Y1.7376  
G01 X-1.8215 Y1.7351  
G01 X-1.8215 Y1.7326  
G01 X-1.8215 Y1.7325  
G01 X-1.8215 Y0.8365  
G01 X-1.8216 Y0.8354  
G01 X-1.8215 Y0.8339  
G01 X-1.8215 Y0.8324  
G01 X-1.8213 Y0.8313  
G01 X-1.8212 Y0.8302  
G01 X-1.8208 Y0.8288  
G01 X-1.8205 Y0.8273  
G01 X-1.8201 Y0.8263  
G01 X-1.8198 Y0.8252  
G01 X-1.8191 Y0.8239  
G01 X-1.8185 Y0.8224  
G01 X-1.8179 Y0.8215  
G01 X-1.8174 Y0.8206  
G01 X-1.8164 Y0.8194  
G01 X-1.8156 Y0.8181  
G01 X-1.8148 Y0.8173  
G01 X-1.8141 Y0.8165  
G01 X-1.8130 Y0.8155  
G01 X-1.8119 Y0.8144  
G01 X-1.8110 Y0.8138  
G01 X-1.8102 Y0.8131  
G01 X-1.8088 Y0.8124  
G01 X-1.8076 Y0.8115  
G01 X-1.8065 Y0.8111  
G01 X-1.5865 Y0.6889  
G01 X-1.5865 Y0.6195  
G01 X-1.5925 Y0.6135  
G01 X-1.5925 Y0.5865  
G01 X-1.5900 Y0.5840  
G01 X-1.5905 Y0.5827  
G01 X-1.5915 Y0.5776  
G01 X-1.5915 Y0.4853  
G01 X-1.6731 Y0.2884  
G01 X-1.6750 Y0.2865  
G01 X-1.6813 Y0.2865  
G01 X-1.6837 Y0.2855  
G01 X-1.6855 Y0.2837  
G01 X-1.6865 Y0.2813  
G01 X-1.6865 Y0.2750  
G01 X-1.6935 Y0.2680  
G01 X-1.6935 Y0.2320  
G01 X-1.6865 Y0.2250  
G01 X-1.6865 Y0.1750  
G01 X-1.6935 Y0.1680  
G01 X-1.6935 Y0.1320  
G01 X-1.6865 Y0.1250  
G01 X-1.6865 Y0.1187  
G01 X-1.6855 Y0.1163  
G01 X-1.6837 Y0.1145  
G01 X-1.6813 Y0.1135  
G01 X-1.6750 Y0.1135  
G01 X-1.6680 Y0.1065  
G01 X-1.6320 Y0.1065  
G01 X-1.6250 Y0.1135  
G01 X-1.5750 Y0.1135  
G01 X-1.5680 Y0.1065  
G01 X-1.5320 Y0.1065  
G01 X-1.5250 Y0.1135  
G01 X-1.4750 Y0.1135  
G01 X-1.4680 Y0.1065  
G01 X-1.4320 Y0.1065  
G01 X-1.4250 Y0.1135  
G01 X-1.4187 Y0.1135  
G01 X-1.4163 Y0.1145  
G01 X-1.4145 Y0.1163  
G01 X-1.4135 Y0.1187  
G01 X-1.4135 Y0.1250  
G01 X-1.4065 Y0.1320  
G01 X-1.4065 Y0.1680  
G01 X-1.4135 Y0.1750  
G01 X-1.4135 Y0.2250  
G01 X-1.4065 Y0.2320  
G01 X-1.4065 Y0.2680  
G01 X-1.4135 Y0.2750  
G01 X-1.4135 Y0.2813  
G01 X-1.4145 Y0.2837  
G01 X-1.4163 Y0.2855  
G01 X-1.4187 Y0.2865  
G01 X-1.4210 Y0.2865  
G01 X-1.3673 Y0.3187  
G01 X-1.0717 Y0.3284  
G01 X-1.0691 Y0.3285  
G01 X-1.0665 Y0.3286  
G01 X-1.0664 Y0.3286  
G01 X-1.0639 Y0.3292  
G01 X-1.0614 Y0.3298  
G01 X-1.0613 Y0.3298  
G01 X-1.0590 Y0.3309  
G01 X-1.0567 Y0.3319  
G01 X-1.0566 Y0.3320  
G01 X-1.0545 Y0.3335  
G01 X-1.0524 Y0.3350  
G01 X-1.0506 Y0.3369  
G01 X-1.0489 Y0.3388  
G01 X-1.0488 Y0.3389  
G01 X-1.0475 Y0.3411  
G01 X-1.0461 Y0.3432  
G01 X-1.0461 Y0.3433  
G01 X-1.0452 Y0.3457  
G01 X-1.0443 Y0.3481  
G01 X-1.0442 Y0.3482  
G01 X-1.0438 Y0.3508  
G01 X-1.0434 Y0.3533  
G01 X-1.0072 Y0.5797  
G01 X-0.9358 Y0.5834  
G01 X-0.9353 Y0.5834  
G01 X-0.9332 Y0.5836  
G01 X-0.9310 Y0.5837  
G01 X-0.9306 Y0.5838  
G01 X-0.9301 Y0.5838  
G01 X-0.9280 Y0.5844  
G01 X-0.9259 Y0.5850  
G01 X-0.9255 Y0.5852  
G01 X-0.9251 Y0.5853  
G01 X-0.9232 Y0.5863  
G01 X-0.9212 Y0.5872  
G01 X-0.9209 Y0.5875  
G01 X-0.9205 Y0.5877  
G01 X-0.9188 Y0.5890  
G01 X-0.9170 Y0.5903  
G01 X-0.9168 Y0.5907  
G01 X-0.9151 Y0.5920  
G01 X-0.8943 Y0.5920  
G01 X-0.8758 Y0.6105  
G01 X-0.8171 Y0.6235  
G01 X-0.7772 Y0.6235  
G01 X-0.7765 Y0.6228  
G01 X-0.7765 Y0.5195  
G01 X-0.7825 Y0.5135  
G01 X-0.7825 Y0.4865  
G01 X-0.7635 Y0.4675  
G01 X-0.7365 Y0.4675  
G01 X-0.7175 Y0.4865  
G01 X-0.7175 Y0.5135  
G01 X-0.7235 Y0.5195  
G01 X-0.7235 Y0.6228  
G01 X-0.7120 Y0.6343  
G01 X-0.7120 Y0.6657  
G01 X-0.7343 Y0.6880  
G01 X-0.7657 Y0.6880  
G01 X-0.7772 Y0.6765  
G01 X-0.8177 Y0.6765  
G01 X-0.8180 Y0.6766  
G01 X-0.8203 Y0.6765  
G01 X-0.8226 Y0.6765  
G01 X-0.8229 Y0.6764  
G01 X-0.8232 Y0.6764  
G01 X-0.8255 Y0.6759  
G01 X-0.8277 Y0.6755  
G01 X-0.8280 Y0.6754  
G01 X-0.8882 Y0.6620  
G01 X-0.8943 Y0.6680  
G01 X-0.9257 Y0.6680  
G01 X-0.9480 Y0.6457  
G01 X-0.9480 Y0.6359  
G01 X-1.0093 Y0.6326  
G01 X-1.0675 Y0.8778  
G01 X-1.0675 Y0.9292  
G01 X-1.0687 Y0.9355  
G01 X-1.0712 Y0.9414  
G01 X-1.0748 Y0.9467  
G01 X-1.0793 Y0.9512  
G01 X-1.0846 Y0.9548  
G01 X-1.0905 Y0.9573  
G01 X-1.0968 Y0.9585  
G01 X-1.1032 Y0.9585  
G01 X-1.1095 Y0.9573  
G01 X-1.1154 Y0.9548  
G01 X-1.1207 Y0.9512  
G01 X-1.1252 Y0.9467  
G01 X-1.1288 Y0.9414  
G01 X-1.1313 Y0.9355  
G01 X-1.1325 Y0.9292  
G01 X-1.1325 Y0.8708  
G01 X-1.1313 Y0.8645  
G01 X-1.1288 Y0.8586  
G01 X-1.1252 Y0.8533  
G01 X-1.1207 Y0.8488  
G01 X-1.1154 Y0.8452  
G01 X-1.1141 Y0.8447  
G01 X-1.0570 Y0.6040  
G01 X-1.0927 Y0.3808  
G01 X-1.3748 Y0.3715  
G01 X-1.3763 Y0.3716  
G01 X-1.3774 Y0.3714  
G01 X-1.3785 Y0.3714  
G01 X-1.3800 Y0.3711  
G01 X-1.3815 Y0.3708  
G01 X-1.3825 Y0.3705  
G01 X-1.3836 Y0.3702  
G01 X-1.3850 Y0.3696  
G01 X-1.3864 Y0.3691  
G01 X-1.3873 Y0.3685  
G01 X-1.3883 Y0.3681  
G01 X-1.3896 Y0.3672  
G01 X-1.4659 Y0.3214  
G01 X-1.4697 Y0.3179  
G01 X-1.4728 Y0.3137  
G01 X-1.4751 Y0.3090  
G01 X-1.4763 Y0.3039  
G01 X-1.4766 Y0.2987  
G01 X-1.4758 Y0.2935  
G01 X-1.4741 Y0.2886  
G01 X-1.4736 Y0.2879  
G01 X-1.4750 Y0.2865  
G01 X-1.5157 Y0.2865  
G01 X-1.5056 Y0.3369  
G01 X-1.4382 Y0.4044  
G01 X-1.1989 Y0.4235  
G01 X-1.1974 Y0.4235  
G01 X-1.1963 Y0.4237  
G01 X-1.1953 Y0.4238  
G01 X-1.1938 Y0.4242  
G01 X-1.1923 Y0.4245  
G01 X-1.1913 Y0.4249  
G01 X-1.1903 Y0.4252  
G01 X-1.1889 Y0.4259  
G01 X-1.1874 Y0.4265  
G01 X-1.1866 Y0.4271  
G01 X-1.1856 Y0.4276  
G01 X-1.1844 Y0.4286  
G01 X-1.1831 Y0.4294  
G01 X-1.1824 Y0.4302  
G01 X-1.1815 Y0.4308  
G01 X-1.1805 Y0.4320  
G01 X-1.1294 Y0.4831  
G01 X-1.1265 Y0.4874  
G01 X-1.1245 Y0.4923  
G01 X-1.1235 Y0.4974  
G01 X-1.1235 Y0.5977  
G01 X-1.1234 Y0.5980  
G01 X-1.1235 Y0.6003  
G01 X-1.1235 Y0.6026  
G01 X-1.1236 Y0.6029  
G01 X-1.1236 Y0.6032  
G01 X-1.1241 Y0.6055  
G01 X-1.1245 Y0.6077  
G01 X-1.1246 Y0.6080  
G01 X-1.1637 Y0.7840  
G01 X-1.1702 Y0.8611  
G01 X-1.1687 Y0.8645  
G01 X-1.1675 Y0.8708  
G01 X-1.1675 Y0.9292  
G01 X-1.1687 Y0.9355  
G01 X-1.1712 Y0.9414  
G01 X-1.1734 Y0.9447  
G01 X-1.1525 Y0.9935  
G01 X-0.7810 Y0.9935  
G01 X-0.3137 Y0.5263  
G01 X-0.3094 Y0.5234  
G01 X-0.3046 Y0.5214  
G01 X-0.2995 Y0.5204  
G01 X-0.1919 Y0.5204  
G01 X-0.1878 Y0.5146  
G01 X-0.1822 Y0.5091  
G01 X-0.1759 Y0.5045  
G01 X-0.1690 Y0.5010  
G01 X-0.1616 Y0.4986  
G01 X-0.1539 Y0.4974  
G01 X-0.1461 Y0.4974  
G01 X-0.1384 Y0.4986  
G01 X-0.1310 Y0.5010  
G01 X-0.1241 Y0.5045  
G01 X-0.1178 Y0.5091  
G01 X-0.1122 Y0.5146  
G00 Z0.0500  
G00 X-0.1122 Y0.8709  
G01 Z-0.0035 F10    
G01 X-0.1077 Y0.8772  F20    
G01 X-0.1041 Y0.8841  
G01 X-0.1017 Y0.8916  
G01 X-0.1005 Y0.8993  
G01 X-0.1005 Y0.9070  
G01 X-0.1017 Y0.9147  
G01 X-0.1041 Y0.9222  
G01 X-0.1077 Y0.9291  
G01 X-0.1122 Y0.9354  
G01 X-0.1178 Y0.9409  
G01 X-0.1241 Y0.9455  
G01 X-0.1310 Y0.9490  
G01 X-0.1384 Y0.9514  
G01 X-0.1461 Y0.9526  
G01 X-0.1539 Y0.9526  
G01 X-0.1616 Y0.9514  
G01 X-0.1690 Y0.9490  
G01 X-0.1759 Y0.9455  
G01 X-0.1822 Y0.9409  
G01 X-0.1878 Y0.9354  
G01 X-0.1923 Y0.9291  
G01 X-0.1959 Y0.9222  
G01 X-0.1962 Y0.9211  
G01 X-0.4559 Y0.8896  
G01 X-0.4643 Y0.8980  
G01 X-0.4957 Y0.8980  
G01 X-0.5180 Y0.8757  
G01 X-0.5180 Y0.8443  
G01 X-0.4957 Y0.8220  
G01 X-0.4643 Y0.8220  
G01 X-0.4492 Y0.8370  
G01 X-0.1858 Y0.8690  
G01 X-0.1822 Y0.8654  
G01 X-0.1759 Y0.8608  
G01 X-0.1690 Y0.8573  
G01 X-0.1616 Y0.8549  
G01 X-0.1539 Y0.8536  
G01 X-0.1461 Y0.8536  
G01 X-0.1384 Y0.8549  
G01 X-0.1310 Y0.8573  
G01 X-0.1241 Y0.8608  
G01 X-0.1178 Y0.8654  
G01 X-0.1122 Y0.8709  
G00 Z0.0500  
G00 X-0.1122 Y1.0678  
G01 Z-0.0035 F10    
G01 X-0.1077 Y1.0741  F20    
G01 X-0.1041 Y1.0810  
G01 X-0.1017 Y1.0884  
G01 X-0.1005 Y1.0961  
G01 X-0.1005 Y1.1039  
G01 X-0.1017 Y1.1116  
G01 X-0.1041 Y1.1190  
G01 X-0.1077 Y1.1259  
G01 X-0.1122 Y1.1322  
G01 X-0.1178 Y1.1378  
G01 X-0.1241 Y1.1423  
G01 X-0.1310 Y1.1459  
G01 X-0.1384 Y1.1483  
G01 X-0.1461 Y1.1495  
G01 X-0.1539 Y1.1495  
G01 X-0.1616 Y1.1483  
G01 X-0.1690 Y1.1459  
G01 X-0.1759 Y1.1423  
G01 X-0.1822 Y1.1378  
G01 X-0.1878 Y1.1322  
G01 X-0.1923 Y1.1259  
G01 X-0.1925 Y1.1256  
G01 X-0.3312 Y1.1025  
G01 X-0.3535 Y1.1025  
G01 X-0.3725 Y1.0835  
G01 X-0.3725 Y1.0565  
G01 X-0.3535 Y1.0375  
G01 X-0.3265 Y1.0375  
G01 X-0.3121 Y1.0520  
G01 X-0.1909 Y1.0721  
G01 X-0.1878 Y1.0678  
G01 X-0.1822 Y1.0622  
G01 X-0.1759 Y1.0577  
G01 X-0.1690 Y1.0541  
G01 X-0.1616 Y1.0517  
G01 X-0.1539 Y1.0505  
G01 X-0.1461 Y1.0505  
G01 X-0.1384 Y1.0517  
G01 X-0.1310 Y1.0541  
G01 X-0.1241 Y1.0577  
G01 X-0.1178 Y1.0622  
G01 X-0.1122 Y1.0678  
G00 Z0.0500  
G00 X-0.4505 Y0.9842  
G01 Z-0.0035 F10    
G01 X-0.4552 Y0.9889  F20    
G01 X-0.4735 Y1.2913  
G01 X-0.4736 Y1.2935  
G01 X-0.4737 Y1.2939  
G01 X-0.4737 Y1.2942  
G01 X-0.4743 Y1.2964  
G01 X-0.4748 Y1.2986  
G01 X-0.4749 Y1.2989  
G01 X-0.4750 Y1.2993  
G01 X-0.4760 Y1.3013  
G01 X-0.4770 Y1.3034  
G01 X-0.4772 Y1.3036  
G01 X-0.4773 Y1.3040  
G01 X-0.4787 Y1.3058  
G01 X-0.4800 Y1.3076  
G01 X-0.4803 Y1.3078  
G01 X-0.4805 Y1.3081  
G01 X-0.4822 Y1.3096  
G01 X-0.4838 Y1.3112  
G01 X-0.4841 Y1.3113  
G01 X-0.4844 Y1.3116  
G01 X-0.4863 Y1.3127  
G01 X-0.5868 Y1.3749  
G01 X-0.6702 Y1.4861  
G01 X-0.7739 Y2.0046  
G01 X-0.7742 Y2.0065  
G01 X-0.7744 Y2.0071  
G01 X-0.7745 Y2.0078  
G01 X-0.7753 Y2.0096  
G01 X-0.7759 Y2.0114  
G01 X-0.7763 Y2.0120  
G01 X-0.7765 Y2.0126  
G01 X-0.7776 Y2.0142  
G01 X-0.7786 Y2.0159  
G01 X-0.7791 Y2.0164  
G01 X-0.7794 Y2.0169  
G01 X-0.7808 Y2.0183  
G01 X-0.7821 Y2.0197  
G01 X-0.7827 Y2.0201  
G01 X-0.7831 Y2.0206  
G01 X-0.7848 Y2.0217  
G01 X-0.7863 Y2.0228  
G01 X-0.7869 Y2.0231  
G01 X-0.7875 Y2.0235  
G01 X-0.7893 Y2.0242  
G01 X-0.7910 Y2.0251  
G01 X-0.7917 Y2.0252  
G01 X-0.7923 Y2.0255  
G01 X-0.7942 Y2.0259  
G01 X-0.9751 Y2.0711  
G01 X-0.9865 Y2.0825  
G01 X-1.0135 Y2.0825  
G01 X-1.0325 Y2.0635  
G01 X-1.0325 Y2.0473  
G01 X-1.0974 Y1.9392  
G01 X-1.0985 Y1.9376  
G01 X-1.0987 Y1.9370  
G01 X-1.0991 Y1.9364  
G01 X-1.0997 Y1.9345  
G01 X-1.1005 Y1.9327  
G01 X-1.1006 Y1.9321  
G01 X-1.1008 Y1.9315  
G01 X-1.1011 Y1.9295  
G01 X-1.1015 Y1.9276  
G01 X-1.1015 Y1.9270  
G01 X-1.1016 Y1.9263  
G01 X-1.1015 Y1.9244  
G01 X-1.1015 Y1.8776  
G01 X-1.1223 Y1.7737  
G01 X-1.1325 Y1.7635  
G01 X-1.1325 Y1.7365  
G01 X-1.1135 Y1.7175  
G01 X-1.0865 Y1.7175  
G01 X-1.0675 Y1.7365  
G01 X-1.0675 Y1.7635  
G01 X-1.0698 Y1.7658  
G01 X-1.0495 Y1.8673  
G01 X-1.0490 Y1.8698  
G01 X-1.0485 Y1.8724  
G01 X-1.0485 Y1.8750  
G01 X-1.0485 Y1.8776  
G01 X-1.0485 Y1.9177  
G01 X-0.9886 Y2.0175  
G01 X-0.9865 Y2.0175  
G01 X-0.9851 Y2.0190  
G01 X-0.8227 Y1.9784  
G01 X-0.7214 Y1.4717  
G01 X-0.7213 Y1.4710  
G01 X-0.7208 Y1.4691  
G01 X-0.7205 Y1.4672  
G01 X-0.7202 Y1.4666  
G01 X-0.7200 Y1.4659  
G01 X-0.7192 Y1.4642  
G01 X-0.7185 Y1.4624  
G01 X-0.7181 Y1.4618  
G01 X-0.7178 Y1.4612  
G01 X-0.7166 Y1.4597  
G01 X-0.7156 Y1.4581  
G01 X-0.7151 Y1.4576  
G01 X-0.6264 Y1.3393  
G01 X-0.6250 Y1.3374  
G01 X-0.6248 Y1.3372  
G01 X-0.6246 Y1.3370  
G01 X-0.6229 Y1.3354  
G01 X-0.6212 Y1.3338  
G01 X-0.6209 Y1.3337  
G01 X-0.6207 Y1.3335  
G01 X-0.6187 Y1.3323  
G01 X-0.5256 Y1.2747  
G01 X-0.5081 Y0.9856  
G01 X-0.5095 Y0.9842  
G01 X-0.5137 Y0.9780  
G01 X-0.5165 Y0.9711  
G01 X-0.5180 Y0.9637  
G01 X-0.5180 Y0.9563  
G01 X-0.5165 Y0.9489  
G01 X-0.5137 Y0.9420  
G01 X-0.5095 Y0.9358  
G01 X-0.5042 Y0.9305  
G01 X-0.4980 Y0.9263  
G01 X-0.4911 Y0.9235  
G01 X-0.4837 Y0.9220  
G01 X-0.4763 Y0.9220  
G01 X-0.4689 Y0.9235  
G01 X-0.4620 Y0.9263  
G01 X-0.4558 Y0.9305  
G01 X-0.4505 Y0.9358  
G01 X-0.4463 Y0.9420  
G01 X-0.4435 Y0.9489  
G01 X-0.4420 Y0.9563  
G01 X-0.4420 Y0.9637  
G01 X-0.4435 Y0.9711  
G01 X-0.4463 Y0.9780  
G01 X-0.4505 Y0.9842  
G00 Z0.0500  
G00 X-0.6075 Y1.0565  
G01 Z-0.0035 F10    
G01 X-0.6075 Y1.0835  F20    
G01 X-0.6121 Y1.0881  
G01 X-0.5914 Y1.1329  
G01 X-0.5907 Y1.1341  
G01 X-0.5903 Y1.1352  
G01 X-0.5898 Y1.1363  
G01 X-0.5895 Y1.1377  
G01 X-0.5747 Y1.1820  
G01 X-0.5743 Y1.1820  
G01 X-0.5520 Y1.2043  
G01 X-0.5520 Y1.2357  
G01 X-0.5743 Y1.2580  
G01 X-0.6057 Y1.2580  
G01 X-0.6280 Y1.2357  
G01 X-0.6280 Y1.2043  
G01 X-0.6244 Y1.2006  
G01 X-0.6397 Y1.1548  
G01 X-0.6702 Y1.0887  
G01 X-0.6711 Y1.0849  
G01 X-0.6725 Y1.0835  
G01 X-0.6725 Y1.0565  
G01 X-0.6535 Y1.0375  
G01 X-0.6265 Y1.0375  
G01 X-0.6075 Y1.0565  
G00 Z0.0500  
G00 X-0.6605 Y1.1958  
G01 Z-0.0035 F10    
G01 X-0.6563 Y1.2020  F20    
G01 X-0.6535 Y1.2089  
G01 X-0.6520 Y1.2163  
G01 X-0.6520 Y1.2237  
G01 X-0.6535 Y1.2311  
G01 X-0.6563 Y1.2380  
G01 X-0.6605 Y1.2442  
G01 X-0.6658 Y1.2495  
G01 X-0.6692 Y1.2518  
G01 X-0.6938 Y1.3792  
G01 X-0.6940 Y1.3810  
G01 X-0.6943 Y1.3818  
G01 X-0.6945 Y1.3826  
G01 X-0.6951 Y1.3842  
G01 X-0.6957 Y1.3859  
G01 X-0.6961 Y1.3866  
G01 X-0.6965 Y1.3874  
G01 X-0.6974 Y1.3889  
G01 X-0.8861 Y1.7180  
G01 X-0.8675 Y1.7365  
G01 X-0.8675 Y1.7635  
G01 X-0.8735 Y1.7695  
G01 X-0.8735 Y1.8805  
G01 X-0.8675 Y1.8865  
G01 X-0.8675 Y1.9135  
G01 X-0.8865 Y1.9325  
G01 X-0.9135 Y1.9325  
G01 X-0.9195 Y1.9265  
G01 X-0.9505 Y1.9265  
G01 X-0.9565 Y1.9325  
G01 X-0.9835 Y1.9325  
G01 X-1.0025 Y1.9135  
G01 X-1.0025 Y1.8865  
G01 X-0.9835 Y1.8675  
G01 X-0.9565 Y1.8675  
G01 X-0.9505 Y1.8735  
G01 X-0.9265 Y1.8735  
G01 X-0.9265 Y1.7765  
G01 X-0.9341 Y1.7765  
G01 X-0.9358 Y1.7766  
G01 X-0.9367 Y1.7765  
G01 X-0.9805 Y1.7765  
G01 X-0.9865 Y1.7825  
G01 X-1.0135 Y1.7825  
G01 X-1.0325 Y1.7635  
G01 X-1.0325 Y1.7365  
G01 X-1.0135 Y1.7175  
G01 X-0.9865 Y1.7175  
G01 X-0.9805 Y1.7235  
G01 X-0.9504 Y1.7235  
G01 X-0.7452 Y1.3656  
G01 X-0.7212 Y1.2417  
G01 X-0.7237 Y1.2380  
G01 X-0.7265 Y1.2311  
G01 X-0.7280 Y1.2237  
G01 X-0.7280 Y1.2163  
G01 X-0.7265 Y1.2089  
G01 X-0.7237 Y1.2020  
G01 X-0.7195 Y1.1958  
G01 X-0.7142 Y1.1905  
G01 X-0.7080 Y1.1863  
G01 X-0.7011 Y1.1835  
G01 X-0.6937 Y1.1820  
G01 X-0.6863 Y1.1820  
G01 X-0.6789 Y1.1835  
G01 X-0.6720 Y1.1863  
G01 X-0.6658 Y1.1905  
G01 X-0.6605 Y1.1958  
G00 Z0.0500  
G00 X-0.8675 Y1.2010  
G01 Z-0.0035 F10    
G01 X-0.7898 Y1.3175  F20    
G01 X-0.7865 Y1.3175  
G01 X-0.7675 Y1.3365  
G01 X-0.7675 Y1.3635  
G01 X-0.7865 Y1.3825  
G01 X-0.7950 Y1.3825  
G01 X-0.8675 Y1.4550  
G01 X-0.8675 Y1.4635  
G01 X-0.8865 Y1.4825  
G01 X-0.9135 Y1.4825  
G01 X-0.9325 Y1.4635  
G01 X-0.9325 Y1.4365  
G01 X-0.9135 Y1.4175  
G01 X-0.9050 Y1.4175  
G01 X-0.8341 Y1.3466  
G01 X-0.8933 Y1.2578  
G01 X-0.8968 Y1.2585  
G01 X-0.9032 Y1.2585  
G01 X-0.9095 Y1.2573  
G01 X-0.9154 Y1.2548  
G01 X-0.9207 Y1.2512  
G01 X-0.9252 Y1.2467  
G01 X-0.9288 Y1.2414  
G01 X-0.9313 Y1.2355  
G01 X-0.9325 Y1.2292  
G01 X-0.9325 Y1.1708  
G01 X-0.9313 Y1.1645  
G01 X-0.9288 Y1.1586  
G01 X-0.9252 Y1.1533  
G01 X-0.9207 Y1.1488  
G01 X-0.9154 Y1.1452  
G01 X-0.9095 Y1.1427  
G01 X-0.9032 Y1.1415  
G01 X-0.8968 Y1.1415  
G01 X-0.8905 Y1.1427  
G01 X-0.8846 Y1.1452  
G01 X-0.8793 Y1.1488  
G01 X-0.8748 Y1.1533  
G01 X-0.8712 Y1.1586  
G01 X-0.8687 Y1.1645  
G01 X-0.8675 Y1.1708  
G01 X-0.8675 Y1.2010  
G00 Z0.0500  
G00 X-0.9675 Y1.2292  
G01 Z-0.0035 F10    
G01 X-0.9687 Y1.2355  F20    
G01 X-0.9712 Y1.2414  
G01 X-0.9735 Y1.2448  
G01 X-0.9735 Y1.3305  
G01 X-0.9675 Y1.3365  
G01 X-0.9675 Y1.3635  
G01 X-0.9735 Y1.3695  
G01 X-0.9735 Y1.4305  
G01 X-0.9675 Y1.4365  
G01 X-0.9675 Y1.4635  
G01 X-0.9735 Y1.4695  
G01 X-0.9735 Y1.5026  
G01 X-0.9745 Y1.5077  
G01 X-0.9765 Y1.5126  
G01 X-0.9794 Y1.5169  
G01 X-0.9831 Y1.5206  
G01 X-1.0831 Y1.6206  
G01 X-1.0874 Y1.6235  
G01 X-1.0923 Y1.6255  
G01 X-1.0974 Y1.6265  
G01 X-1.3890 Y1.6265  
G01 X-1.4735 Y1.7110  
G01 X-1.4735 Y1.7805  
G01 X-1.4675 Y1.7865  
G01 X-1.4675 Y1.8135  
G01 X-1.4865 Y1.8325  
G01 X-1.5135 Y1.8325  
G01 X-1.5325 Y1.8135  
G01 X-1.5325 Y1.7865  
G01 X-1.5265 Y1.7805  
G01 X-1.5265 Y1.6974  
G01 X-1.5255 Y1.6923  
G01 X-1.5235 Y1.6874  
G01 X-1.5206 Y1.6831  
G01 X-1.4169 Y1.5794  
G01 X-1.4126 Y1.5765  
G01 X-1.4077 Y1.5745  
G01 X-1.4026 Y1.5735  
G01 X-1.1110 Y1.5735  
G01 X-1.0265 Y1.4890  
G01 X-1.0265 Y1.4695  
G01 X-1.0325 Y1.4635  
G01 X-1.0325 Y1.4365  
G01 X-1.0265 Y1.4305  
G01 X-1.0265 Y1.3695  
G01 X-1.0325 Y1.3635  
G01 X-1.0325 Y1.3365  
G01 X-1.0265 Y1.3305  
G01 X-1.0265 Y1.2448  
G01 X-1.0288 Y1.2414  
G01 X-1.0313 Y1.2355  
G01 X-1.0325 Y1.2292  
G01 X-1.0325 Y1.1708  
G01 X-1.0313 Y1.1645  
G01 X-1.0288 Y1.1586  
G01 X-1.0252 Y1.1533  
G01 X-1.0207 Y1.1488  
G01 X-1.0154 Y1.1452  
G01 X-1.0095 Y1.1427  
G01 X-1.0032 Y1.1415  
G01 X-0.9968 Y1.1415  
G01 X-0.9905 Y1.1427  
G01 X-0.9846 Y1.1452  
G01 X-0.9793 Y1.1488  
G01 X-0.9748 Y1.1533  
G01 X-0.9712 Y1.1586  
G01 X-0.9687 Y1.1645  
G01 X-0.9675 Y1.1708  
G01 X-0.9675 Y1.2292  
G00 Z0.0500  
G00 X-1.0675 Y1.2292  
G01 Z-0.0035 F10    
G01 X-1.0687 Y1.2355  F20    
G01 X-1.0708 Y1.2403  
G01 X-1.0648 Y1.3292  
G01 X-1.0575 Y1.3365  
G01 X-1.0575 Y1.3635  
G01 X-1.0655 Y1.3715  
G01 X-1.0716 Y1.4324  
G01 X-1.0675 Y1.4365  
G01 X-1.0675 Y1.4635  
G01 X-1.0865 Y1.4825  
G01 X-1.1135 Y1.4825  
G01 X-1.1195 Y1.4765  
G01 X-1.1805 Y1.4765  
G01 X-1.1865 Y1.4825  
G01 X-1.2135 Y1.4825  
G01 X-1.2325 Y1.4635  
G01 X-1.2325 Y1.4365  
G01 X-1.2135 Y1.4175  
G01 X-1.1865 Y1.4175  
G01 X-1.1805 Y1.4235  
G01 X-1.1240 Y1.4235  
G01 X-1.1184 Y1.3676  
G01 X-1.1225 Y1.3635  
G01 X-1.1225 Y1.3365  
G01 X-1.1178 Y1.3318  
G01 X-1.1233 Y1.2486  
G01 X-1.1252 Y1.2467  
G01 X-1.1288 Y1.2414  
G01 X-1.1313 Y1.2355  
G01 X-1.1325 Y1.2292  
G01 X-1.1325 Y1.1708  
G01 X-1.1313 Y1.1645  
G01 X-1.1288 Y1.1586  
G01 X-1.1252 Y1.1533  
G01 X-1.1207 Y1.1488  
G01 X-1.1154 Y1.1452  
G01 X-1.1095 Y1.1427  
G01 X-1.1032 Y1.1415  
G01 X-1.0968 Y1.1415  
G01 X-1.0905 Y1.1427  
G01 X-1.0846 Y1.1452  
G01 X-1.0793 Y1.1488  
G01 X-1.0748 Y1.1533  
G01 X-1.0712 Y1.1586  
G01 X-1.0687 Y1.1645  
G01 X-1.0675 Y1.1708  
G01 X-1.0675 Y1.2292  
G00 Z0.0500  
G00 X-1.1675 Y1.2292  
G01 Z-0.0035 F10    
G01 X-1.1687 Y1.2355  F20    
G01 X-1.1712 Y1.2414  
G01 X-1.1735 Y1.2448  
G01 X-1.1735 Y1.2493  
G01 X-1.1734 Y1.2512  
G01 X-1.1735 Y1.2519  
G01 X-1.1735 Y1.2526  
G01 X-1.1739 Y1.2545  
G01 X-1.1741 Y1.2564  
G01 X-1.1744 Y1.2570  
G01 X-1.1745 Y1.2577  
G01 X-1.1753 Y1.2595  
G01 X-1.1759 Y1.2613  
G01 X-1.1762 Y1.2619  
G01 X-1.1765 Y1.2626  
G01 X-1.1776 Y1.2641  
G01 X-1.1786 Y1.2658  
G01 X-1.1790 Y1.2663  
G01 X-1.1794 Y1.2669  
G01 X-1.1808 Y1.2682  
G01 X-1.2575 Y1.3535  
G01 X-1.2575 Y1.3635  
G01 X-1.2655 Y1.3715  
G01 X-1.2716 Y1.4324  
G01 X-1.2675 Y1.4365  
G01 X-1.2675 Y1.4635  
G01 X-1.2865 Y1.4825  
G01 X-1.3135 Y1.4825  
G01 X-1.3325 Y1.4635  
G01 X-1.3325 Y1.4365  
G01 X-1.3245 Y1.4285  
G01 X-1.3184 Y1.3676  
G01 X-1.3225 Y1.3635  
G01 X-1.3225 Y1.3365  
G01 X-1.3035 Y1.3175  
G01 X-1.2964 Y1.3175  
G01 X-1.2284 Y1.2420  
G01 X-1.2288 Y1.2414  
G01 X-1.2313 Y1.2355  
G01 X-1.2325 Y1.2292  
G01 X-1.2325 Y1.1708  
G01 X-1.2313 Y1.1645  
G01 X-1.2288 Y1.1586  
G01 X-1.2252 Y1.1533  
G01 X-1.2207 Y1.1488  
G01 X-1.2154 Y1.1452  
G01 X-1.2095 Y1.1427  
G01 X-1.2032 Y1.1415  
G01 X-1.1968 Y1.1415  
G01 X-1.1905 Y1.1427  
G01 X-1.1846 Y1.1452  
G01 X-1.1793 Y1.1488  
G01 X-1.1748 Y1.1533  
G01 X-1.1712 Y1.1586  
G01 X-1.1687 Y1.1645  
G01 X-1.1675 Y1.1708  
G01 X-1.1675 Y1.2292  
G00 Z0.0500  
G00 X-1.2675 Y1.2292  
G01 Z-0.0035 F10    
G01 X-1.2687 Y1.2355  F20    
G01 X-1.2712 Y1.2414  
G01 X-1.2735 Y1.2448  
G01 X-1.2735 Y1.2526  
G01 X-1.2745 Y1.2577  
G01 X-1.2765 Y1.2626  
G01 X-1.2794 Y1.2669  
G01 X-1.3675 Y1.3550  
G01 X-1.3675 Y1.3635  
G01 X-1.3735 Y1.3695  
G01 X-1.3735 Y1.4305  
G01 X-1.3675 Y1.4365  
G01 X-1.3675 Y1.4635  
G01 X-1.3865 Y1.4825  
G01 X-1.4135 Y1.4825  
G01 X-1.4325 Y1.4635  
G01 X-1.4325 Y1.4365  
G01 X-1.4265 Y1.4305  
G01 X-1.4265 Y1.3695  
G01 X-1.4325 Y1.3635  
G01 X-1.4325 Y1.3365  
G01 X-1.4135 Y1.3175  
G01 X-1.4050 Y1.3175  
G01 X-1.3288 Y1.2413  
G01 X-1.3313 Y1.2355  
G01 X-1.3325 Y1.2292  
G01 X-1.3325 Y1.1708  
G01 X-1.3313 Y1.1645  
G01 X-1.3288 Y1.1586  
G01 X-1.3252 Y1.1533  
G01 X-1.3207 Y1.1488  
G01 X-1.3154 Y1.1452  
G01 X-1.3095 Y1.1427  
G01 X-1.3032 Y1.1415  
G01 X-1.2968 Y1.1415  
G01 X-1.2905 Y1.1427  
G01 X-1.2846 Y1.1452  
G01 X-1.2793 Y1.1488  
G01 X-1.2748 Y1.1533  
G01 X-1.2712 Y1.1586  
G01 X-1.2687 Y1.1645  
G01 X-1.2675 Y1.1708  
G01 X-1.2675 Y1.2292  
G00 Z0.0500  
G00 X-1.3675 Y1.2292  
G01 Z-0.0035 F10    
G01 X-1.3687 Y1.2355  F20    
G01 X-1.3712 Y1.2414  
G01 X-1.3748 Y1.2467  
G01 X-1.3793 Y1.2512  
G01 X-1.3846 Y1.2548  
G01 X-1.3905 Y1.2573  
G01 X-1.3958 Y1.2583  
G01 X-1.5044 Y1.3669  
G01 X-1.5081 Y1.3706  
G01 X-1.5124 Y1.3735  
G01 X-1.5173 Y1.3755  
G01 X-1.5224 Y1.3765  
G01 X-1.5805 Y1.3765  
G01 X-1.5865 Y1.3825  
G01 X-1.6135 Y1.3825  
G01 X-1.6325 Y1.3635  
G01 X-1.6325 Y1.3365  
G01 X-1.6135 Y1.3175  
G01 X-1.5865 Y1.3175  
G01 X-1.5805 Y1.3235  
G01 X-1.5360 Y1.3235  
G01 X-1.4325 Y1.2200  
G01 X-1.4325 Y1.1708  
G01 X-1.4313 Y1.1645  
G01 X-1.4288 Y1.1586  
G01 X-1.4252 Y1.1533  
G01 X-1.4207 Y1.1488  
G01 X-1.4154 Y1.1452  
G01 X-1.4095 Y1.1427  
G01 X-1.4032 Y1.1415  
G01 X-1.3968 Y1.1415  
G01 X-1.3905 Y1.1427  
G01 X-1.3846 Y1.1452  
G01 X-1.3793 Y1.1488  
G01 X-1.3748 Y1.1533  
G01 X-1.3712 Y1.1586  
G01 X-1.3687 Y1.1645  
G01 X-1.3675 Y1.1708  
G01 X-1.3675 Y1.2292  
G00 Z0.0500  
G00 X-1.4675 Y1.2292  
G01 Z-0.0035 F10    
G01 X-1.4687 Y1.2355  F20    
G01 X-1.4712 Y1.2414  
G01 X-1.4748 Y1.2467  
G01 X-1.4793 Y1.2512  
G01 X-1.4846 Y1.2548  
G01 X-1.4905 Y1.2573  
G01 X-1.4968 Y1.2585  
G01 X-1.5032 Y1.2585  
G01 X-1.5095 Y1.2573  
G01 X-1.5154 Y1.2548  
G01 X-1.5207 Y1.2512  
G01 X-1.5252 Y1.2467  
G01 X-1.5288 Y1.2414  
G01 X-1.5313 Y1.2355  
G01 X-1.5325 Y1.2292  
G01 X-1.5325 Y1.1708  
G01 X-1.5319 Y1.1678  
G01 X-1.5650 Y1.0905  
G01 X-1.7101 Y1.0325  
G01 X-1.7335 Y1.0325  
G01 X-1.7525 Y1.0135  
G01 X-1.7525 Y0.9865  
G01 X-1.7335 Y0.9675  
G01 X-1.7065 Y0.9675  
G01 X-1.6910 Y0.9831  
G01 X-1.5328 Y1.0463  
G01 X-1.5284 Y1.0492  
G01 X-1.5246 Y1.0529  
G01 X-1.5217 Y1.0572  
G01 X-1.4837 Y1.1458  
G01 X-1.4793 Y1.1488  
G01 X-1.4748 Y1.1533  
G01 X-1.4712 Y1.1586  
G01 X-1.4687 Y1.1645  
G01 X-1.4675 Y1.1708  
G01 X-1.4675 Y1.2292  
G00 Z0.0500  
G00 X-1.5675 Y1.2292  
G01 Z-0.0035 F10    
G01 X-1.5687 Y1.2355  F20    
G01 X-1.5712 Y1.2414  
G01 X-1.5748 Y1.2467  
G01 X-1.5793 Y1.2512  
G01 X-1.5846 Y1.2548  
G01 X-1.5905 Y1.2573  
G01 X-1.5968 Y1.2585  
G01 X-1.6032 Y1.2585  
G01 X-1.6095 Y1.2573  
G01 X-1.6154 Y1.2548  
G01 X-1.6207 Y1.2512  
G01 X-1.6252 Y1.2467  
G01 X-1.6288 Y1.2414  
G01 X-1.6313 Y1.2355  
G01 X-1.6325 Y1.2292  
G01 X-1.6325 Y1.2265  
G01 X-1.7005 Y1.2265  
G01 X-1.7065 Y1.2325  
G01 X-1.7335 Y1.2325  
G01 X-1.7525 Y1.2135  
G01 X-1.7525 Y1.1865  
G01 X-1.7335 Y1.1675  
G01 X-1.7065 Y1.1675  
G01 X-1.7005 Y1.1735  
G01 X-1.6325 Y1.1735  
G01 X-1.6325 Y1.1708  
G01 X-1.6313 Y1.1645  
G01 X-1.6288 Y1.1586  
G01 X-1.6252 Y1.1533  
G01 X-1.6207 Y1.1488  
G01 X-1.6154 Y1.1452  
G01 X-1.6095 Y1.1427  
G01 X-1.6032 Y1.1415  
G01 X-1.5968 Y1.1415  
G01 X-1.5905 Y1.1427  
G01 X-1.5846 Y1.1452  
G01 X-1.5793 Y1.1488  
G01 X-1.5748 Y1.1533  
G01 X-1.5712 Y1.1586  
G01 X-1.5687 Y1.1645  
G01 X-1.5675 Y1.1708  
G01 X-1.5675 Y1.2292  
G00 Z0.0500  
G00 X-1.5793 Y0.9512  
G01 Z-0.0035 F10    
G01 X-1.5846 Y0.9548  F20    
G01 X-1.5905 Y0.9573  
G01 X-1.5968 Y0.9585  
G01 X-1.6032 Y0.9585  
G01 X-1.6095 Y0.9573  
G01 X-1.6154 Y0.9548  
G01 X-1.6207 Y0.9512  
G01 X-1.6252 Y0.9467  
G01 X-1.6288 Y0.9414  
G01 X-1.6313 Y0.9355  
G01 X-1.6325 Y0.9292  
G01 X-1.6325 Y0.8708  
G01 X-1.6313 Y0.8645  
G01 X-1.6288 Y0.8586  
G01 X-1.6252 Y0.8533  
G01 X-1.6207 Y0.8488  
G01 X-1.6154 Y0.8452  
G01 X-1.6095 Y0.8427  
G01 X-1.6053 Y0.8419  
G01 X-1.5925 Y0.8099  
G01 X-1.5925 Y0.7865  
G01 X-1.5735 Y0.7675  
G01 X-1.5465 Y0.7675  
G01 X-1.5275 Y0.7865  
G01 X-1.5275 Y0.8135  
G01 X-1.5431 Y0.8290  
G01 X-1.5675 Y0.8901  
G01 X-1.5675 Y0.9292  
G01 X-1.5687 Y0.9355  
G01 X-1.5712 Y0.9414  
G01 X-1.5748 Y0.9467  
G01 X-1.5793 Y0.9512  
G00 Z0.0500  
G00 X-1.5252 Y0.9467  
G01 Z-0.0035 F10    
G01 X-1.5288 Y0.9414  F20    
G01 X-1.5313 Y0.9355  
G01 X-1.5325 Y0.9292  
G01 X-1.5325 Y0.8708  
G01 X-1.5313 Y0.8645  
G01 X-1.5288 Y0.8586  
G01 X-1.5252 Y0.8533  
G01 X-1.5207 Y0.8488  
G01 X-1.5154 Y0.8452  
G01 X-1.5095 Y0.8427  
G01 X-1.5038 Y0.8416  
G01 X-1.4725 Y0.7686  
G01 X-1.4725 Y0.7465  
G01 X-1.4535 Y0.7275  
G01 X-1.4265 Y0.7275  
G01 X-1.4075 Y0.7465  
G01 X-1.4075 Y0.7735  
G01 X-1.4240 Y0.7900  
G01 X-1.4675 Y0.8914  
G01 X-1.4675 Y0.9292  
G01 X-1.4687 Y0.9355  
G01 X-1.4712 Y0.9414  
G01 X-1.4748 Y0.9467  
G01 X-1.4793 Y0.9512  
G01 X-1.4846 Y0.9548  
G01 X-1.4905 Y0.9573  
G01 X-1.4968 Y0.9585  
G01 X-1.5032 Y0.9585  
G01 X-1.5095 Y0.9573  
G01 X-1.5154 Y0.9548  
G01 X-1.5207 Y0.9512  
G01 X-1.5252 Y0.9467  
G00 Z0.0500  
G00 X-1.4252 Y0.9467  
G01 Z-0.0035 F10    
G01 X-1.4288 Y0.9414  F20    
G01 X-1.4313 Y0.9355  
G01 X-1.4325 Y0.9292  
G01 X-1.4325 Y0.8708  
G01 X-1.4313 Y0.8645  
G01 X-1.4288 Y0.8586  
G01 X-1.4252 Y0.8533  
G01 X-1.4207 Y0.8488  
G01 X-1.4154 Y0.8452  
G01 X-1.4127 Y0.8441  
G01 X-1.3701 Y0.7704  
G01 X-1.3314 Y0.5866  
G01 X-1.3313 Y0.5861  
G01 X-1.3308 Y0.5841  
G01 X-1.3304 Y0.5820  
G01 X-1.3302 Y0.5815  
G01 X-1.3210 Y0.5449  
G01 X-1.3225 Y0.5435  
G01 X-1.3225 Y0.5165  
G01 X-1.3035 Y0.4975  
G01 X-1.2765 Y0.4975  
G01 X-1.2575 Y0.5165  
G01 X-1.2575 Y0.5435  
G01 X-1.2689 Y0.5549  
G01 X-1.2792 Y0.5959  
G01 X-1.3189 Y0.7845  
G01 X-1.3191 Y0.7861  
G01 X-1.3194 Y0.7870  
G01 X-1.3196 Y0.7880  
G01 X-1.3202 Y0.7895  
G01 X-1.3208 Y0.7910  
G01 X-1.3213 Y0.7919  
G01 X-1.3217 Y0.7928  
G01 X-1.3226 Y0.7941  
G01 X-1.3675 Y0.8718  
G01 X-1.3675 Y0.9292  
G01 X-1.3687 Y0.9355  
G01 X-1.3712 Y0.9414  
G01 X-1.3748 Y0.9467  
G01 X-1.3793 Y0.9512  
G01 X-1.3846 Y0.9548  
G01 X-1.3905 Y0.9573  
G01 X-1.3968 Y0.9585  
G01 X-1.4032 Y0.9585  
G01 X-1.4095 Y0.9573  
G01 X-1.4154 Y0.9548  
G01 X-1.4207 Y0.9512  
G01 X-1.4252 Y0.9467  
G00 Z0.0500  
G00 X-1.3252 Y0.9467  
G01 Z-0.0035 F10    
G01 X-1.3288 Y0.9414  F20    
G01 X-1.3313 Y0.9355  
G01 X-1.3325 Y0.9292  
G01 X-1.3325 Y0.8708  
G01 X-1.3313 Y0.8645  
G01 X-1.3288 Y0.8586  
G01 X-1.3252 Y0.8533  
G01 X-1.3207 Y0.8488  
G01 X-1.3154 Y0.8452  
G01 X-1.3095 Y0.8427  
G01 X-1.3032 Y0.8415  
G01 X-1.2968 Y0.8415  
G01 X-1.2905 Y0.8427  
G01 X-1.2846 Y0.8452  
G01 X-1.2793 Y0.8488  
G01 X-1.2748 Y0.8533  
G01 X-1.2712 Y0.8586  
G01 X-1.2687 Y0.8645  
G01 X-1.2675 Y0.8708  
G01 X-1.2675 Y0.9292  
G01 X-1.2687 Y0.9355  
G01 X-1.2712 Y0.9414  
G01 X-1.2748 Y0.9467  
G01 X-1.2793 Y0.9512  
G01 X-1.2846 Y0.9548  
G01 X-1.2905 Y0.9573  
G01 X-1.2968 Y0.9585  
G01 X-1.3032 Y0.9585  
G01 X-1.3095 Y0.9573  
G01 X-1.3154 Y0.9548  
G01 X-1.3207 Y0.9512  
G01 X-1.3252 Y0.9467  
G00 Z0.0500  
G00 X-1.0252 Y0.9467  
G01 Z-0.0035 F10    
G01 X-1.0288 Y0.9414  F20    
G01 X-1.0313 Y0.9355  
G01 X-1.0325 Y0.9292  
G01 X-1.0325 Y0.8708  
G01 X-1.0313 Y0.8645  
G01 X-1.0288 Y0.8586  
G01 X-1.0252 Y0.8533  
G01 X-1.0207 Y0.8488  
G01 X-1.0162 Y0.8457  
G01 X-1.0160 Y0.8448  
G01 X-1.0155 Y0.8423  
G01 X-1.0145 Y0.8399  
G01 X-1.0135 Y0.8375  
G01 X-1.0120 Y0.8353  
G01 X-0.9472 Y0.7380  
G01 X-0.9480 Y0.7337  
G01 X-0.9480 Y0.7263  
G01 X-0.9465 Y0.7189  
G01 X-0.9437 Y0.7120  
G01 X-0.9395 Y0.7058  
G01 X-0.9342 Y0.7005  
G01 X-0.9280 Y0.6963  
G01 X-0.9211 Y0.6935  
G01 X-0.9137 Y0.6920  
G01 X-0.9063 Y0.6920  
G01 X-0.8989 Y0.6935  
G01 X-0.8920 Y0.6963  
G01 X-0.8858 Y0.7005  
G01 X-0.8805 Y0.7058  
G01 X-0.8763 Y0.7120  
G01 X-0.8735 Y0.7189  
G01 X-0.8720 Y0.7263  
G01 X-0.8720 Y0.7337  
G01 X-0.8735 Y0.7411  
G01 X-0.8763 Y0.7480  
G01 X-0.8805 Y0.7542  
G01 X-0.8858 Y0.7595  
G01 X-0.8920 Y0.7637  
G01 X-0.8989 Y0.7665  
G01 X-0.9031 Y0.7674  
G01 X-0.9650 Y0.8603  
G01 X-0.9675 Y0.8726  
G01 X-0.9675 Y0.9292  
G01 X-0.9687 Y0.9355  
G01 X-0.9712 Y0.9414  
G01 X-0.9748 Y0.9467  
G01 X-0.9793 Y0.9512  
G01 X-0.9846 Y0.9548  
G01 X-0.9905 Y0.9573  
G01 X-0.9968 Y0.9585  
G01 X-1.0032 Y0.9585  
G01 X-1.0095 Y0.9573  
G01 X-1.0154 Y0.9548  
G01 X-1.0207 Y0.9512  
G01 X-1.0252 Y0.9467  
G00 Z0.0500  
G00 X-0.9252 Y0.9467  
G01 Z-0.0035 F10    
G01 X-0.9288 Y0.9414  F20    
G01 X-0.9313 Y0.9355  
G01 X-0.9325 Y0.9292  
G01 X-0.9325 Y0.8708  
G01 X-0.9313 Y0.8645  
G01 X-0.9288 Y0.8586  
G01 X-0.9252 Y0.8533  
G01 X-0.9207 Y0.8488  
G01 X-0.9154 Y0.8452  
G01 X-0.9095 Y0.8427  
G01 X-0.9032 Y0.8415  
G01 X-0.8968 Y0.8415  
G01 X-0.8905 Y0.8427  
G01 X-0.8846 Y0.8452  
G01 X-0.8793 Y0.8488  
G01 X-0.8748 Y0.8533  
G01 X-0.8744 Y0.8538  
G01 X-0.8164 Y0.8190  
G01 X-0.7214 Y0.7239  
G01 X-0.6865 Y0.6612  
G01 X-0.6880 Y0.6537  
G01 X-0.6880 Y0.6463  
G01 X-0.6865 Y0.6389  
G01 X-0.6837 Y0.6320  
G01 X-0.6795 Y0.6258  
G01 X-0.6765 Y0.6228  
G01 X-0.6765 Y0.5195  
G01 X-0.6825 Y0.5135  
G01 X-0.6825 Y0.4865  
G01 X-0.6765 Y0.4805  
G01 X-0.6765 Y0.3842  
G01 X-0.6790 Y0.3824  
G01 X-0.6839 Y0.3774  
G01 X-0.6881 Y0.3717  
G01 X-0.6912 Y0.3655  
G01 X-0.6934 Y0.3588  
G01 X-0.6945 Y0.3519  
G01 X-0.6945 Y0.3449  
G01 X-0.6934 Y0.3380  
G01 X-0.6912 Y0.3313  
G01 X-0.6881 Y0.3251  
G01 X-0.6839 Y0.3194  
G01 X-0.6790 Y0.3145  
G01 X-0.6733 Y0.3104  
G01 X-0.6671 Y0.3072  
G01 X-0.6604 Y0.3050  
G01 X-0.6535 Y0.3039  
G01 X-0.6465 Y0.3039  
G01 X-0.6396 Y0.3050  
G01 X-0.6329 Y0.3072  
G01 X-0.6267 Y0.3104  
G01 X-0.6210 Y0.3145  
G01 X-0.6161 Y0.3194  
G01 X-0.6119 Y0.3251  
G01 X-0.6088 Y0.3313  
G01 X-0.6066 Y0.3380  
G01 X-0.6055 Y0.3449  
G01 X-0.6055 Y0.3519  
G01 X-0.6066 Y0.3588  
G01 X-0.6088 Y0.3655  
G01 X-0.6119 Y0.3717  
G01 X-0.6161 Y0.3774  
G01 X-0.6210 Y0.3824  
G01 X-0.6235 Y0.3842  
G01 X-0.6235 Y0.4805  
G01 X-0.6175 Y0.4865  
G01 X-0.6175 Y0.5135  
G01 X-0.6235 Y0.5195  
G01 X-0.6235 Y0.6228  
G01 X-0.6205 Y0.6258  
G01 X-0.6163 Y0.6320  
G01 X-0.6135 Y0.6389  
G01 X-0.6120 Y0.6463  
G01 X-0.6120 Y0.6537  
G01 X-0.6135 Y0.6611  
G01 X-0.6163 Y0.6680  
G01 X-0.6205 Y0.6742  
G01 X-0.6258 Y0.6795  
G01 X-0.6320 Y0.6837  
G01 X-0.6389 Y0.6865  
G01 X-0.6401 Y0.6868  
G01 X-0.6761 Y0.7515  
G01 X-0.6765 Y0.7526  
G01 X-0.6774 Y0.7538  
G01 X-0.6781 Y0.7552  
G01 X-0.6788 Y0.7560  
G01 X-0.6794 Y0.7569  
G01 X-0.6805 Y0.7580  
G01 X-0.6815 Y0.7591  
G01 X-0.6823 Y0.7598  
G01 X-0.7799 Y0.8574  
G01 X-0.7803 Y0.8579  
G01 X-0.7817 Y0.8592  
G01 X-0.7831 Y0.8606  
G01 X-0.7836 Y0.8609  
G01 X-0.7841 Y0.8614  
G01 X-0.7858 Y0.8624  
G01 X-0.7874 Y0.8635  
G01 X-0.7880 Y0.8637  
G01 X-0.8675 Y0.9114  
G01 X-0.8675 Y0.9292  
G01 X-0.8687 Y0.9355  
G01 X-0.8712 Y0.9414  
G01 X-0.8748 Y0.9467  
G01 X-0.8793 Y0.9512  
G01 X-0.8846 Y0.9548  
G01 X-0.8905 Y0.9573  
G01 X-0.8968 Y0.9585  
G01 X-0.9032 Y0.9585  
G01 X-0.9095 Y0.9573  
G01 X-0.9154 Y0.9548  
G01 X-0.9207 Y0.9512  
G01 X-0.9252 Y0.9467  
G00 Z0.0500  
G00 X-1.0320 Y0.2935  
G01 Z-0.0035 F10    
G01 X-1.0680 Y0.2935  F20    
G01 X-1.0935 Y0.2680  
G01 X-1.0935 Y0.2320  
G01 X-1.0680 Y0.2065  
G01 X-1.0320 Y0.2065  
G01 X-1.0065 Y0.2320  
G01 X-1.0065 Y0.2680  
G01 X-1.0320 Y0.2935  
G00 Z0.0500  
G00 X-1.0320 Y0.1935  
G01 Z-0.0035 F10    
G01 X-1.0680 Y0.1935  F20    
G01 X-1.0935 Y0.1680  
G01 X-1.0935 Y0.1320  
G01 X-1.0680 Y0.1065  
G01 X-1.0320 Y0.1065  
G01 X-1.0065 Y0.1320  
G01 X-1.0065 Y0.1680  
G01 X-1.0320 Y0.1935  
G00 Z0.0500  
G00 X-1.1320 Y0.1935  
G01 Z-0.0035 F10    
G01 X-1.1680 Y0.1935  F20    
G01 X-1.1935 Y0.1680  
G01 X-1.1935 Y0.1320  
G01 X-1.1680 Y0.1065  
G01 X-1.1320 Y0.1065  
G01 X-1.1065 Y0.1320  
G01 X-1.1065 Y0.1680  
G01 X-1.1320 Y0.1935  
G00 Z0.0500  
G00 X-1.1320 Y0.2065  
G01 Z-0.0035 F10    
G01 X-1.1065 Y0.2320  F20    
G01 X-1.1065 Y0.2680  
G01 X-1.1320 Y0.2935  
G01 X-1.1680 Y0.2935  
G01 X-1.1935 Y0.2680  
G01 X-1.1935 Y0.2320  
G01 X-1.1680 Y0.2065  
G01 X-1.1320 Y0.2065  
G00 Z0.0500  
G00 X-1.2065 Y0.2320  
G01 Z-0.0035 F10    
G01 X-1.2065 Y0.2680  F20    
G01 X-1.2320 Y0.2935  
G01 X-1.2680 Y0.2935  
G01 X-1.2935 Y0.2680  
G01 X-1.2935 Y0.2320  
G01 X-1.2765 Y0.2150  
G01 X-1.2765 Y0.1850  
G01 X-1.2935 Y0.1680  
G01 X-1.2935 Y0.1320  
G01 X-1.2680 Y0.1065  
G01 X-1.2654 Y0.1065  
G01 X-1.2341 Y0.0440  
G01 X-1.2335 Y0.0424  
G01 X-1.2330 Y0.0417  
G01 X-1.2325 Y0.0408  
G01 X-1.2315 Y0.0395  
G01 X-1.2306 Y0.0381  
G01 X-1.2299 Y0.0374  
G01 X-1.2293 Y0.0367  
G01 X-1.2281 Y0.0356  
G01 X-1.2269 Y0.0344  
G01 X-1.2261 Y0.0339  
G01 X-1.2254 Y0.0333  
G01 X-1.2239 Y0.0324  
G01 X-1.2226 Y0.0315  
G01 X-1.2217 Y0.0312  
G01 X-1.2209 Y0.0307  
G01 X-1.2193 Y0.0302  
G01 X-1.2177 Y0.0295  
G01 X-1.2168 Y0.0293  
G01 X-1.2159 Y0.0290  
G01 X-1.2142 Y0.0288  
G01 X-1.2126 Y0.0285  
G01 X-1.2117 Y0.0285  
G01 X-1.2107 Y0.0284  
G01 X-1.2091 Y0.0285  
G01 X-0.9309 Y0.0285  
G01 X-0.9293 Y0.0284  
G01 X-0.9283 Y0.0285  
G01 X-0.9274 Y0.0285  
G01 X-0.9258 Y0.0288  
G01 X-0.9241 Y0.0290  
G01 X-0.9232 Y0.0293  
G01 X-0.9223 Y0.0295  
G01 X-0.9207 Y0.0302  
G01 X-0.6723 Y0.1130  
G01 X-0.6671 Y0.1103  
G01 X-0.6604 Y0.1082  
G01 X-0.6535 Y0.1071  
G01 X-0.6465 Y0.1071  
G01 X-0.6396 Y0.1082  
G01 X-0.6329 Y0.1103  
G01 X-0.6267 Y0.1135  
G01 X-0.6210 Y0.1176  
G01 X-0.6161 Y0.1226  
G01 X-0.6119 Y0.1283  
G01 X-0.6088 Y0.1345  
G01 X-0.6066 Y0.1412  
G01 X-0.6055 Y0.1481  
G01 X-0.6055 Y0.1551  
G01 X-0.6066 Y0.1620  
G01 X-0.6088 Y0.1687  
G01 X-0.6119 Y0.1749  
G01 X-0.6161 Y0.1806  
G01 X-0.6210 Y0.1855  
G01 X-0.6267 Y0.1896  
G01 X-0.6329 Y0.1928  
G01 X-0.6396 Y0.1950  
G01 X-0.6465 Y0.1961  
G01 X-0.6535 Y0.1961  
G01 X-0.6604 Y0.1950  
G01 X-0.6671 Y0.1928  
G01 X-0.6733 Y0.1896  
G01 X-0.6790 Y0.1855  
G01 X-0.6839 Y0.1806  
G01 X-0.6881 Y0.1749  
G01 X-0.6912 Y0.1687  
G01 X-0.6934 Y0.1620  
G01 X-0.6934 Y0.1618  
G01 X-0.9343 Y0.0815  
G01 X-1.1936 Y0.0815  
G01 X-1.2147 Y0.1237  
G01 X-1.2065 Y0.1320  
G01 X-1.2065 Y0.1680  
G01 X-1.2235 Y0.1850  
G01 X-1.2235 Y0.2150  
G01 X-1.2065 Y0.2320  
G00 Z0.0500  
G00 X-1.3065 Y0.2320  
G01 Z-0.0035 F10    
G01 X-1.3065 Y0.2680  F20    
G01 X-1.3320 Y0.2935  
G01 X-1.3680 Y0.2935  
G01 X-1.3935 Y0.2680  
G01 X-1.3935 Y0.2320  
G01 X-1.3680 Y0.2065  
G01 X-1.3320 Y0.2065  
G01 X-1.3065 Y0.2320  
G00 Z0.0500  
G00 X-1.3320 Y0.1935  
G01 Z-0.0035 F10    
G01 X-1.3680 Y0.1935  F20    
G01 X-1.3935 Y0.1680  
G01 X-1.3935 Y0.1320  
G01 X-1.3680 Y0.1065  
G01 X-1.3320 Y0.1065  
G01 X-1.3065 Y0.1320  
G01 X-1.3065 Y0.1680  
G01 X-1.3320 Y0.1935  
G00 Z0.0500  
G00 X-1.7320 Y0.1935  
G01 Z-0.0035 F10    
G01 X-1.7680 Y0.1935  F20    
G01 X-1.7935 Y0.1680  
G01 X-1.7935 Y0.1320  
G01 X-1.7680 Y0.1065  
G01 X-1.7320 Y0.1065  
G01 X-1.7065 Y0.1320  
G01 X-1.7065 Y0.1680  
G01 X-1.7320 Y0.1935  
G00 Z0.0500  
G00 X-1.7320 Y0.2065  
G01 Z-0.0035 F10    
G01 X-1.7065 Y0.2320  F20    
G01 X-1.7065 Y0.2680  
G01 X-1.7320 Y0.2935  
G01 X-1.7680 Y0.2935  
G01 X-1.7935 Y0.2680  
G01 X-1.7935 Y0.2320  
G01 X-1.7680 Y0.2065  
G01 X-1.7320 Y0.2065  
G00 Z0.0500  
G00 X-1.4135 Y1.7175  
G01 Z-0.0035 F10    
G01 X-1.3865 Y1.7175  F20    
G01 X-1.3805 Y1.7235  
G01 X-1.3195 Y1.7235  
G01 X-1.3135 Y1.7175  
G01 X-1.2865 Y1.7175  
G01 X-1.2805 Y1.7235  
G01 X-1.2195 Y1.7235  
G01 X-1.2135 Y1.7175  
G01 X-1.1865 Y1.7175  
G01 X-1.1675 Y1.7365  
G01 X-1.1675 Y1.7635  
G01 X-1.1865 Y1.7825  
G01 X-1.2135 Y1.7825  
G01 X-1.2195 Y1.7765  
G01 X-1.2805 Y1.7765  
G01 X-1.2865 Y1.7825  
G01 X-1.3135 Y1.7825  
G01 X-1.3195 Y1.7765  
G01 X-1.3458 Y1.7765  
G01 X-1.3217 Y1.8075  
G01 X-1.3165 Y1.8075  
G01 X-1.2975 Y1.8265  
G01 X-1.2975 Y1.8535  
G01 X-1.3165 Y1.8725  
G01 X-1.3435 Y1.8725  
G01 X-1.3625 Y1.8535  
G01 X-1.3625 Y1.8414  
G01 X-1.4083 Y1.7825  
G01 X-1.4135 Y1.7825  
G01 X-1.4325 Y1.7635  
G01 X-1.4325 Y1.7365  
G01 X-1.4135 Y1.7175  
G00 Z0.0500  
G00 X-1.4675 Y2.0865  
G01 Z-0.0035 F10    
G01 X-1.4675 Y2.0932  F20    
G01 X-1.0876 Y2.4257  
G01 X-0.8606 Y2.4781  
G01 X-0.8580 Y2.4763  
G01 X-0.8511 Y2.4735  
G01 X-0.8437 Y2.4720  
G01 X-0.8363 Y2.4720  
G01 X-0.8289 Y2.4735  
G01 X-0.8220 Y2.4763  
G01 X-0.8158 Y2.4805  
G01 X-0.8105 Y2.4858  
G01 X-0.8063 Y2.4920  
G01 X-0.8035 Y2.4989  
G01 X-0.8020 Y2.5063  
G01 X-0.8020 Y2.5137  
G01 X-0.8035 Y2.5211  
G01 X-0.8063 Y2.5280  
G01 X-0.8105 Y2.5342  
G01 X-0.8158 Y2.5395  
G01 X-0.8220 Y2.5437  
G01 X-0.8289 Y2.5465  
G01 X-0.8363 Y2.5480  
G01 X-0.8437 Y2.5480  
G01 X-0.8511 Y2.5465  
G01 X-0.8580 Y2.5437  
G01 X-0.8642 Y2.5395  
G01 X-0.8695 Y2.5342  
G01 X-0.8725 Y2.5297  
G01 X-1.1047 Y2.4761  
G01 X-1.1060 Y2.4759  
G01 X-1.1072 Y2.4755  
G01 X-1.1085 Y2.4752  
G01 X-1.1097 Y2.4747  
G01 X-1.1110 Y2.4743  
G01 X-1.1121 Y2.4736  
G01 X-1.1133 Y2.4731  
G01 X-1.1143 Y2.4723  
G01 X-1.1155 Y2.4717  
G01 X-1.1165 Y2.4708  
G01 X-1.1175 Y2.4701  
G01 X-1.1184 Y2.4691  
G01 X-1.5031 Y2.1325  
G01 X-1.5135 Y2.1325  
G01 X-1.5325 Y2.1135  
G01 X-1.5325 Y2.0865  
G01 X-1.5135 Y2.0675  
G01 X-1.4865 Y2.0675  
G01 X-1.4675 Y2.0865  
G00 Z0.0500  
G00 X-0.9325 Y2.1865  
G01 Z-0.0035 F10    
G01 X-0.9135 Y2.1675  F20    
G01 X-0.8865 Y2.1675  
G01 X-0.8805 Y2.1735  
G01 X-0.7272 Y2.1735  
G01 X-0.7242 Y2.1705  
G01 X-0.7180 Y2.1663  
G01 X-0.7111 Y2.1635  
G01 X-0.7037 Y2.1620  
G01 X-0.6963 Y2.1620  
G01 X-0.6889 Y2.1635  
G01 X-0.6820 Y2.1663  
G01 X-0.6758 Y2.1705  
G01 X-0.6705 Y2.1758  
G01 X-0.6663 Y2.1820  
G01 X-0.6635 Y2.1889  
G01 X-0.6620 Y2.1963  
G01 X-0.6620 Y2.2037  
G01 X-0.6635 Y2.2111  
G01 X-0.6663 Y2.2180  
G01 X-0.6705 Y2.2242  
G01 X-0.6758 Y2.2295  
G01 X-0.6820 Y2.2337  
G01 X-0.6889 Y2.2365  
G01 X-0.6963 Y2.2380  
G01 X-0.7037 Y2.2380  
G01 X-0.7111 Y2.2365  
G01 X-0.7180 Y2.2337  
G01 X-0.7242 Y2.2295  
G01 X-0.7272 Y2.2265  
G01 X-0.8805 Y2.2265  
G01 X-0.8865 Y2.2325  
G01 X-0.9135 Y2.2325  
G01 X-0.9325 Y2.2135  
G01 X-0.9325 Y2.1865  
G00 Z0.0500  
G00 X-0.6380 Y2.1843  
G01 Z-0.0035 F10    
G01 X-0.6157 Y2.1620  F20    
G01 X-0.5843 Y2.1620  
G01 X-0.5620 Y2.1843  
G01 X-0.5620 Y2.1847  
G01 X-0.4635 Y2.2176  
G01 X-0.4365 Y2.2175  
G01 X-0.4267 Y2.2274  
G01 X-0.1902 Y2.2712  
G01 X-0.1878 Y2.2678  
G01 X-0.1822 Y2.2622  
G01 X-0.1759 Y2.2577  
G01 X-0.1690 Y2.2541  
G01 X-0.1616 Y2.2517  
G01 X-0.1539 Y2.2505  
G01 X-0.1461 Y2.2505  
G01 X-0.1384 Y2.2517  
G01 X-0.1310 Y2.2541  
G01 X-0.1241 Y2.2577  
G01 X-0.1178 Y2.2622  
G01 X-0.1122 Y2.2678  
G01 X-0.1077 Y2.2741  
G01 X-0.1041 Y2.2810  
G01 X-0.1017 Y2.2884  
G01 X-0.1005 Y2.2961  
G01 X-0.1005 Y2.3039  
G01 X-0.1017 Y2.3116  
G01 X-0.1041 Y2.3190  
G01 X-0.1077 Y2.3259  
G01 X-0.1122 Y2.3322  
G01 X-0.1178 Y2.3378  
G01 X-0.1241 Y2.3423  
G01 X-0.1310 Y2.3459  
G01 X-0.1384 Y2.3483  
G01 X-0.1461 Y2.3495  
G01 X-0.1539 Y2.3495  
G01 X-0.1616 Y2.3483  
G01 X-0.1690 Y2.3459  
G01 X-0.1759 Y2.3423  
G01 X-0.1822 Y2.3378  
G01 X-0.1878 Y2.3322  
G01 X-0.1923 Y2.3259  
G01 X-0.1931 Y2.3245  
G01 X-0.4340 Y2.2799  
G01 X-0.4365 Y2.2825  
G01 X-0.4635 Y2.2825  
G01 X-0.4770 Y2.2689  
G01 X-0.5806 Y2.2344  
G01 X-0.5843 Y2.2380  
G01 X-0.6157 Y2.2380  
G01 X-0.6380 Y2.2157  
G01 X-0.6380 Y2.1843  
G00 Z0.0500  
G00 X-0.4161 Y2.0915  
G01 Z-0.0035 F10    
G01 X-0.4167 Y2.0908  F20    
G01 X-0.6169 Y1.8906  
G01 X-0.6206 Y1.8869  
G01 X-0.6235 Y1.8826  
G01 X-0.6255 Y1.8777  
G01 X-0.6265 Y1.8726  
G01 X-0.6265 Y1.8127  
G01 X-0.6313 Y1.8120  
G01 X-0.6398 Y1.8092  
G01 X-0.6477 Y1.8052  
G01 X-0.6549 Y1.7999  
G01 X-0.6612 Y1.7937  
G01 X-0.6664 Y1.7865  
G01 X-0.6705 Y1.7785  
G01 X-0.6732 Y1.7701  
G01 X-0.6746 Y1.7613  
G01 X-0.6746 Y1.6524  
G01 X-0.6732 Y1.6436  
G01 X-0.6705 Y1.6352  
G01 X-0.6664 Y1.6272  
G01 X-0.6612 Y1.6200  
G01 X-0.6549 Y1.6138  
G01 X-0.6477 Y1.6085  
G01 X-0.6398 Y1.6045  
G01 X-0.6313 Y1.6017  
G01 X-0.6226 Y1.6004  
G01 X-0.6137 Y1.6004  
G01 X-0.6049 Y1.6017  
G01 X-0.5964 Y1.6045  
G01 X-0.5885 Y1.6085  
G01 X-0.5813 Y1.6138  
G01 X-0.5750 Y1.6200  
G01 X-0.5698 Y1.6272  
G01 X-0.5657 Y1.6352  
G01 X-0.5630 Y1.6436  
G01 X-0.5616 Y1.6524  
G01 X-0.5616 Y1.7613  
G01 X-0.5630 Y1.7701  
G01 X-0.5657 Y1.7785  
G01 X-0.5698 Y1.7865  
G01 X-0.5735 Y1.7916  
G01 X-0.5735 Y1.8590  
G01 X-0.3846 Y2.0479  
G01 X-0.1884 Y2.0718  
G01 X-0.1878 Y2.0709  
G01 X-0.1822 Y2.0654  
G01 X-0.1759 Y2.0608  
G01 X-0.1690 Y2.0573  
G01 X-0.1616 Y2.0549  
G01 X-0.1539 Y2.0536  
G01 X-0.1461 Y2.0536  
G01 X-0.1384 Y2.0549  
G01 X-0.1310 Y2.0573  
G01 X-0.1241 Y2.0608  
G01 X-0.1178 Y2.0654  
G01 X-0.1122 Y2.0709  
G01 X-0.1077 Y2.0772  
G01 X-0.1041 Y2.0841  
G01 X-0.1017 Y2.0916  
G01 X-0.1005 Y2.0993  
G01 X-0.1005 Y2.1070  
G01 X-0.1017 Y2.1147  
G01 X-0.1041 Y2.1222  
G01 X-0.1077 Y2.1291  
G01 X-0.1122 Y2.1354  
G01 X-0.1178 Y2.1409  
G01 X-0.1241 Y2.1455  
G01 X-0.1310 Y2.1490  
G01 X-0.1384 Y2.1514  
G01 X-0.1461 Y2.1526  
G01 X-0.1539 Y2.1526  
G01 X-0.1616 Y2.1514  
G01 X-0.1690 Y2.1490  
G01 X-0.1759 Y2.1455  
G01 X-0.1822 Y2.1409  
G01 X-0.1878 Y2.1354  
G01 X-0.1923 Y2.1291  
G01 X-0.1947 Y2.1244  
G01 X-0.3985 Y2.0996  
G01 X-0.3995 Y2.0996  
G01 X-0.4010 Y2.0993  
G01 X-0.4026 Y2.0991  
G01 X-0.4036 Y2.0988  
G01 X-0.4046 Y2.0986  
G01 X-0.4061 Y2.0980  
G01 X-0.4076 Y2.0975  
G01 X-0.4085 Y2.0970  
G01 X-0.4094 Y2.0966  
G01 X-0.4107 Y2.0957  
G01 X-0.4121 Y2.0949  
G01 X-0.4129 Y2.0943  
G01 X-0.4137 Y2.0937  
G01 X-0.4149 Y2.0926  
G01 X-0.4161 Y2.0915  
G00 Z0.0500  
G00 X-0.4447 Y1.5452  
G01 Z-0.0035 F10    
G01 X-0.4519 Y1.5504  F20    
G01 X-0.4598 Y1.5545  
G01 X-0.4683 Y1.5572  
G01 X-0.4770 Y1.5586  
G01 X-0.5859 Y1.5586  
G01 X-0.5947 Y1.5572  
G01 X-0.6032 Y1.5545  
G01 X-0.6111 Y1.5504  
G01 X-0.6183 Y1.5452  
G01 X-0.6246 Y1.5389  
G01 X-0.6298 Y1.5317  
G01 X-0.6339 Y1.5238  
G01 X-0.6366 Y1.5154  
G01 X-0.6380 Y1.5066  
G01 X-0.6380 Y1.4977  
G01 X-0.6366 Y1.4889  
G01 X-0.6339 Y1.4804  
G01 X-0.6298 Y1.4725  
G01 X-0.6246 Y1.4653  
G01 X-0.6183 Y1.4590  
G01 X-0.6111 Y1.4538  
G01 X-0.6032 Y1.4498  
G01 X-0.5947 Y1.4470  
G01 X-0.5859 Y1.4456  
G01 X-0.4770 Y1.4456  
G01 X-0.4683 Y1.4470  
G01 X-0.4598 Y1.4498  
G01 X-0.4519 Y1.4538  
G01 X-0.4447 Y1.4590  
G01 X-0.4384 Y1.4653  
G01 X-0.4332 Y1.4725  
G01 X-0.4291 Y1.4804  
G01 X-0.4264 Y1.4889  
G01 X-0.4250 Y1.4977  
G01 X-0.4250 Y1.5066  
G01 X-0.4264 Y1.5154  
G01 X-0.4291 Y1.5238  
G01 X-0.4332 Y1.5317  
G01 X-0.4384 Y1.5389  
G01 X-0.4447 Y1.5452  
G00 Z0.0500  
G00 X-0.4447 Y2.6490  
G01 Z-0.0035 F10    
G01 X-0.4384 Y2.6553  F20    
G01 X-0.4332 Y2.6625  
G01 X-0.4291 Y2.6704  
G01 X-0.4264 Y2.6789  
G01 X-0.4250 Y2.6877  
G01 X-0.4250 Y2.6966  
G01 X-0.4264 Y2.7054  
G01 X-0.4291 Y2.7138  
G01 X-0.4332 Y2.7217  
G01 X-0.4384 Y2.7289  
G01 X-0.4447 Y2.7352  
G01 X-0.4519 Y2.7404  
G01 X-0.4598 Y2.7445  
G01 X-0.4683 Y2.7472  
G01 X-0.4770 Y2.7486  
G01 X-0.5859 Y2.7486  
G01 X-0.5947 Y2.7472  
G01 X-0.6032 Y2.7445  
G01 X-0.6111 Y2.7404  
G01 X-0.6183 Y2.7352  
G01 X-0.6246 Y2.7289  
G01 X-0.6298 Y2.7217  
G01 X-0.6339 Y2.7138  
G01 X-0.6366 Y2.7054  
G01 X-0.6380 Y2.6966  
G01 X-0.6380 Y2.6877  
G01 X-0.6366 Y2.6789  
G01 X-0.6339 Y2.6704  
G01 X-0.6298 Y2.6625  
G01 X-0.6246 Y2.6553  
G01 X-0.6183 Y2.6490  
G01 X-0.6111 Y2.6438  
G01 X-0.6032 Y2.6398  
G01 X-0.5947 Y2.6370  
G01 X-0.5859 Y2.6356  
G01 X-0.4770 Y2.6356  
G01 X-0.4683 Y2.6370  
G01 X-0.4598 Y2.6398  
G01 X-0.4519 Y2.6438  
G01 X-0.4447 Y2.6490  
G00 Z0.0500  
G00 X-0.6795 Y2.7020  
G01 Z-0.0035 F10    
G01 X-0.6369 Y2.7935  F20    
G01 X-0.6313 Y2.7917  
G01 X-0.6226 Y2.7904  
G01 X-0.6137 Y2.7904  
G01 X-0.6049 Y2.7917  
G01 X-0.5964 Y2.7945  
G01 X-0.5885 Y2.7985  
G01 X-0.5813 Y2.8038  
G01 X-0.5750 Y2.8100  
G01 X-0.5698 Y2.8172  
G01 X-0.5657 Y2.8252  
G01 X-0.5630 Y2.8336  
G01 X-0.5616 Y2.8424  
G01 X-0.5616 Y2.9513  
G01 X-0.5630 Y2.9601  
G01 X-0.5657 Y2.9685  
G01 X-0.5698 Y2.9765  
G01 X-0.5750 Y2.9837  
G01 X-0.5813 Y2.9899  
G01 X-0.5885 Y2.9952  
G01 X-0.5964 Y2.9992  
G01 X-0.6049 Y3.0020  
G01 X-0.6137 Y3.0034  
G01 X-0.6226 Y3.0034  
G01 X-0.6313 Y3.0020  
G01 X-0.6398 Y2.9992  
G01 X-0.6477 Y2.9952  
G01 X-0.6549 Y2.9899  
G01 X-0.6612 Y2.9837  
G01 X-0.6664 Y2.9765  
G01 X-0.6705 Y2.9685  
G01 X-0.6732 Y2.9601  
G01 X-0.6746 Y2.9513  
G01 X-0.6746 Y2.8424  
G01 X-0.6741 Y2.8392  
G01 X-0.7283 Y2.7227  
G01 X-0.7287 Y2.7220  
G01 X-0.7294 Y2.7204  
G01 X-0.7301 Y2.7188  
G01 X-0.7303 Y2.7180  
G01 X-0.7306 Y2.7171  
G01 X-0.7309 Y2.7154  
G01 X-0.7313 Y2.7137  
G01 X-0.7314 Y2.7129  
G01 X-0.7612 Y2.5425  
G01 X-0.7780 Y2.5257  
G01 X-0.7780 Y2.4943  
G01 X-0.7557 Y2.4720  
G01 X-0.7243 Y2.4720  
G01 X-0.7020 Y2.4943  
G01 X-0.7020 Y2.5257  
G01 X-0.7091 Y2.5328  
G01 X-0.6795 Y2.7020  
G00 Z0.0500  
G00 X-0.1115 Y0.1203  
G01 Z-0.0035 F10    
G01 X-0.1068 Y0.1267  F20    
G01 X-0.1032 Y0.1338  
G01 X-0.1007 Y0.1413  
G01 X-0.0995 Y0.1492  
G01 X-0.0995 Y0.1571  
G01 X-0.1007 Y0.1650  
G01 X-0.1032 Y0.1725  
G01 X-0.1068 Y0.1796  
G01 X-0.1115 Y0.1860  
G01 X-0.1171 Y0.1917  
G01 X-0.1235 Y0.1963  
G01 X-0.1306 Y0.1999  
G01 X-0.1382 Y0.2024  
G01 X-0.1410 Y0.2029  
G01 X-0.2053 Y0.2529  
G01 X-0.2024 Y0.2587  
G01 X-0.1606 Y0.3005  
G01 X-0.1540 Y0.2995  
G01 X-0.1460 Y0.2995  
G01 X-0.1382 Y0.3007  
G01 X-0.1306 Y0.3032  
G01 X-0.1235 Y0.3068  
G01 X-0.1171 Y0.3115  
G01 X-0.1115 Y0.3171  
G01 X-0.1068 Y0.3235  
G01 X-0.1032 Y0.3306  
G01 X-0.1007 Y0.3382  
G01 X-0.0995 Y0.3460  
G01 X-0.0995 Y0.3540  
G01 X-0.1007 Y0.3618  
G01 X-0.1032 Y0.3694  
G01 X-0.1068 Y0.3765  
G01 X-0.1115 Y0.3829  
G01 X-0.1171 Y0.3885  
G01 X-0.1235 Y0.3932  
G01 X-0.1306 Y0.3968  
G01 X-0.1382 Y0.3993  
G01 X-0.1460 Y0.4005  
G01 X-0.1540 Y0.4005  
G01 X-0.1618 Y0.3993  
G01 X-0.1694 Y0.3968  
G01 X-0.1765 Y0.3932  
G01 X-0.1829 Y0.3885  
G01 X-0.1885 Y0.3829  
G01 X-0.1932 Y0.3765  
G01 X-0.1968 Y0.3694  
G01 X-0.1993 Y0.3618  
G01 X-0.2005 Y0.3540  
G01 X-0.2005 Y0.3460  
G01 X-0.1995 Y0.3394  
G01 X-0.2438 Y0.2951  
G01 X-0.2451 Y0.2940  
G01 X-0.2457 Y0.2932  
G01 X-0.2464 Y0.2925  
G01 X-0.2473 Y0.2911  
G01 X-0.2484 Y0.2897  
G01 X-0.2488 Y0.2888  
G01 X-0.2494 Y0.2880  
G01 X-0.2500 Y0.2864  
G01 X-0.2570 Y0.2725  
G01 X-0.6786 Y0.2725  
G01 X-0.7576 Y0.3515  
G01 X-0.8565 Y0.5394  
G01 X-0.8565 Y0.5439  
G01 X-0.8761 Y0.5635  
G01 X-0.9039 Y0.5635  
G01 X-0.9235 Y0.5439  
G01 X-0.9235 Y0.5161  
G01 X-0.9039 Y0.4965  
G01 X-0.8961 Y0.4965  
G01 X-0.8049 Y0.3233  
G01 X-0.8044 Y0.3220  
G01 X-0.8037 Y0.3209  
G01 X-0.8031 Y0.3198  
G01 X-0.8022 Y0.3187  
G01 X-0.8014 Y0.3175  
G01 X-0.8005 Y0.3166  
G01 X-0.7997 Y0.3156  
G01 X-0.7986 Y0.3147  
G01 X-0.7114 Y0.2275  
G01 X-0.7075 Y0.2236  
G01 X-0.7030 Y0.2206  
G01 X-0.6980 Y0.2186  
G01 X-0.6927 Y0.2175  
G01 X-0.2494 Y0.2175  
G01 X-0.1953 Y0.1754  
G01 X-0.1968 Y0.1725  
G01 X-0.1993 Y0.1650  
G01 X-0.2005 Y0.1571  
G01 X-0.2005 Y0.1492  
G01 X-0.1993 Y0.1413  
G01 X-0.1968 Y0.1338  
G01 X-0.1932 Y0.1267  
G01 X-0.1885 Y0.1203  
G01 X-0.1829 Y0.1146  
G01 X-0.1765 Y0.1100  
G01 X-0.1694 Y0.1063  
G01 X-0.1618 Y0.1039  
G01 X-0.1540 Y0.1026  
G01 X-0.1460 Y0.1026  
G01 X-0.1382 Y0.1039  
G01 X-0.1306 Y0.1063  
G01 X-0.1235 Y0.1100  
G01 X-0.1171 Y0.1146  
G01 X-0.1115 Y0.1203  
G00 Z0.0500  
G00 X-0.1115 Y0.5140  
G01 Z-0.0035 F10    
G01 X-0.1068 Y0.5204  F20    
G01 X-0.1032 Y0.5275  
G01 X-0.1007 Y0.5350  
G01 X-0.0995 Y0.5429  
G01 X-0.0995 Y0.5508  
G01 X-0.1007 Y0.5587  
G01 X-0.1032 Y0.5662  
G01 X-0.1068 Y0.5733  
G01 X-0.1115 Y0.5797  
G01 X-0.1171 Y0.5854  
G01 X-0.1235 Y0.5900  
G01 X-0.1306 Y0.5937  
G01 X-0.1382 Y0.5961  
G01 X-0.1460 Y0.5974  
G01 X-0.1540 Y0.5974  
G01 X-0.1618 Y0.5961  
G01 X-0.1694 Y0.5937  
G01 X-0.1765 Y0.5900  
G01 X-0.1829 Y0.5854  
G01 X-0.1885 Y0.5797  
G01 X-0.1924 Y0.5744  
G01 X-0.2855 Y0.5744  
G01 X-0.7486 Y1.0375  
G01 X-0.7525 Y1.0414  
G01 X-0.7570 Y1.0444  
G01 X-0.7620 Y1.0464  
G01 X-0.7673 Y1.0475  
G01 X-1.1698 Y1.0475  
G01 X-1.1724 Y1.0475  
G01 X-1.1725 Y1.0475  
G01 X-1.1727 Y1.0475  
G01 X-1.1752 Y1.0470  
G01 X-1.1777 Y1.0465  
G01 X-1.1779 Y1.0465  
G01 X-1.1780 Y1.0464  
G01 X-1.1804 Y1.0455  
G01 X-1.1827 Y1.0445  
G01 X-1.1829 Y1.0444  
G01 X-1.1830 Y1.0444  
G01 X-1.1851 Y1.0430  
G01 X-1.1873 Y1.0416  
G01 X-1.1874 Y1.0415  
G01 X-1.1875 Y1.0414  
G01 X-1.1893 Y1.0396  
G01 X-1.1911 Y1.0378  
G01 X-1.1912 Y1.0377  
G01 X-1.1914 Y1.0375  
G01 X-1.1928 Y1.0354  
G01 X-1.1942 Y1.0333  
G01 X-1.1943 Y1.0332  
G01 X-1.1944 Y1.0330  
G01 X-1.1953 Y1.0307  
G01 X-1.2243 Y0.9632  
G01 X-1.2244 Y0.9630  
G01 X-1.2253 Y0.9607  
G01 X-1.2263 Y0.9583  
G01 X-1.2264 Y0.9582  
G01 X-1.2264 Y0.9580  
G01 X-1.2269 Y0.9555  
G01 X-1.2275 Y0.9530  
G01 X-1.2275 Y0.9529  
G01 X-1.2275 Y0.9527  
G01 X-1.2275 Y0.9502  
G01 X-1.2275 Y0.9476  
G01 X-1.2275 Y0.9475  
G01 X-1.2275 Y0.9451  
G01 X-1.2297 Y0.9419  
G01 X-1.2322 Y0.9358  
G01 X-1.2335 Y0.9293  
G01 X-1.2335 Y0.8707  
G01 X-1.2322 Y0.8642  
G01 X-1.2297 Y0.8581  
G01 X-1.2260 Y0.8526  
G01 X-1.2234 Y0.8501  
G01 X-1.2175 Y0.7785  
G01 X-1.2174 Y0.7767  
G01 X-1.2172 Y0.7759  
G01 X-1.2172 Y0.7750  
G01 X-1.2167 Y0.7732  
G01 X-1.1775 Y0.5970  
G01 X-1.1775 Y0.5114  
G01 X-1.2123 Y0.4766  
G01 X-1.4511 Y0.4575  
G01 X-1.4527 Y0.4575  
G01 X-1.4538 Y0.4573  
G01 X-1.4549 Y0.4572  
G01 X-1.4564 Y0.4568  
G01 X-1.4580 Y0.4564  
G01 X-1.4590 Y0.4560  
G01 X-1.4601 Y0.4557  
G01 X-1.4615 Y0.4550  
G01 X-1.4630 Y0.4544  
G01 X-1.4639 Y0.4538  
G01 X-1.4649 Y0.4533  
G01 X-1.4662 Y0.4523  
G01 X-1.4675 Y0.4514  
G01 X-1.4683 Y0.4506  
G01 X-1.4692 Y0.4499  
G01 X-1.4702 Y0.4487  
G01 X-1.5495 Y0.3694  
G01 X-1.5513 Y0.3676  
G01 X-1.5529 Y0.3653  
G01 X-1.5544 Y0.3631  
G01 X-1.5554 Y0.3605  
G01 X-1.5564 Y0.3580  
G01 X-1.5570 Y0.3554  
G01 X-1.5693 Y0.2936  
G01 X-1.5754 Y0.2875  
G01 X-1.6150 Y0.2875  
G01 X-1.5429 Y0.4615  
G01 X-1.4413 Y0.5265  
G01 X-1.4261 Y0.5265  
G01 X-1.4065 Y0.5461  
G01 X-1.4065 Y0.5739  
G01 X-1.4261 Y0.5935  
G01 X-1.4539 Y0.5935  
G01 X-1.4735 Y0.5739  
G01 X-1.4735 Y0.5712  
G01 X-1.5375 Y0.5302  
G01 X-1.5375 Y0.5751  
G01 X-1.5265 Y0.5861  
G01 X-1.5265 Y0.6139  
G01 X-1.5325 Y0.6199  
G01 X-1.5325 Y0.7027  
G01 X-1.5336 Y0.7080  
G01 X-1.5356 Y0.7130  
G01 X-1.5386 Y0.7175  
G01 X-1.5425 Y0.7214  
G01 X-1.5494 Y0.7283  
G01 X-1.5501 Y0.7292  
G01 X-1.5514 Y0.7302  
G01 X-1.5525 Y0.7314  
G01 X-1.5534 Y0.7320  
G01 X-1.5543 Y0.7327  
G01 X-1.5557 Y0.7335  
G01 X-1.5570 Y0.7344  
G01 X-1.5580 Y0.7348  
G01 X-1.7675 Y0.8512  
G01 X-1.7675 Y1.7201  
G01 X-1.3309 Y2.0065  
G01 X-1.3161 Y2.0065  
G01 X-1.3086 Y2.0141  
G01 X-1.2222 Y2.0207  
G01 X-1.2013 Y1.9161  
G01 X-1.2035 Y1.9139  
G01 X-1.2035 Y1.8861  
G01 X-1.1839 Y1.8665  
G01 X-1.1561 Y1.8665  
G01 X-1.1365 Y1.8861  
G01 X-1.1365 Y1.9139  
G01 X-1.1468 Y1.9242  
G01 X-1.1687 Y2.0339  
G01 X-1.1665 Y2.0361  
G01 X-1.1665 Y2.0639  
G01 X-1.1861 Y2.0835  
G01 X-1.1871 Y2.0835  
G01 X-1.0120 Y2.2975  
G01 X-0.7775 Y2.2975  
G01 X-0.7773 Y2.2975  
G01 X-0.7748 Y2.2975  
G01 X-0.7723 Y2.2975  
G01 X-0.7721 Y2.2975  
G01 X-0.7718 Y2.2975  
G01 X-0.7694 Y2.2981  
G01 X-0.7670 Y2.2986  
G01 X-0.7668 Y2.2986  
G01 X-0.7665 Y2.2987  
G01 X-0.7643 Y2.2997  
G01 X-0.7620 Y2.3006  
G01 X-0.7618 Y2.3008  
G01 X-0.7616 Y2.3008  
G01 X-0.7595 Y2.3023  
G01 X-0.7575 Y2.3036  
G01 X-0.7573 Y2.3038  
G01 X-0.4501 Y2.5165  
G01 X-0.4361 Y2.5165  
G01 X-0.4301 Y2.5225  
G01 X-0.2114 Y2.5225  
G01 X-0.1988 Y2.5100  
G01 X-0.1993 Y2.5087  
G01 X-0.2005 Y2.5008  
G01 X-0.2005 Y2.4929  
G01 X-0.1993 Y2.4850  
G01 X-0.1968 Y2.4775  
G01 X-0.1932 Y2.4704  
G01 X-0.1885 Y2.4640  
G01 X-0.1829 Y2.4583  
G01 X-0.1765 Y2.4537  
G01 X-0.1694 Y2.4501  
G01 X-0.1618 Y2.4476  
G01 X-0.1614 Y2.4475  
G01 X-0.0775 Y2.3636  
G01 X-0.0775 Y2.0815  
G01 X-0.1238 Y1.9888  
G01 X-0.1244 Y1.9880  
G01 X-0.1250 Y1.9864  
G01 X-0.1258 Y1.9849  
G01 X-0.1261 Y1.9839  
G01 X-0.1264 Y1.9830  
G01 X-0.1268 Y1.9813  
G01 X-0.1272 Y1.9797  
G01 X-0.1273 Y1.9787  
G01 X-0.1275 Y1.9777  
G01 X-0.1275 Y1.9760  
G01 X-0.1276 Y1.9742  
G01 X-0.1275 Y1.9733  
G01 X-0.1275 Y1.8066  
G01 X-0.1286 Y1.8060  
G01 X-0.1359 Y1.8007  
G01 X-0.1423 Y1.7943  
G01 X-0.1476 Y1.7870  
G01 X-0.1517 Y1.7789  
G01 X-0.1545 Y1.7703  
G01 X-0.1559 Y1.7614  
G01 X-0.1559 Y1.6523  
G01 X-0.1545 Y1.6434  
G01 X-0.1517 Y1.6348  
G01 X-0.1476 Y1.6267  
G01 X-0.1423 Y1.6194  
G01 X-0.1382 Y1.6153  
G01 X-0.1721 Y1.3423  
G01 X-0.1765 Y1.3400  
G01 X-0.1829 Y1.3354  
G01 X-0.1885 Y1.3297  
G01 X-0.1932 Y1.3233  
G01 X-0.1968 Y1.3162  
G01 X-0.1993 Y1.3087  
G01 X-0.2005 Y1.3008  
G01 X-0.2005 Y1.2929  
G01 X-0.1993 Y1.2850  
G01 X-0.1968 Y1.2775  
G01 X-0.1932 Y1.2704  
G01 X-0.1885 Y1.2640  
G01 X-0.1829 Y1.2583  
G01 X-0.1765 Y1.2537  
G01 X-0.1694 Y1.2501  
G01 X-0.1618 Y1.2476  
G01 X-0.1540 Y1.2464  
G01 X-0.1460 Y1.2464  
G01 X-0.1382 Y1.2476  
G01 X-0.1306 Y1.2501  
G01 X-0.1235 Y1.2537  
G01 X-0.1171 Y1.2583  
G01 X-0.1115 Y1.2640  
G01 X-0.1068 Y1.2704  
G01 X-0.1032 Y1.2775  
G01 X-0.1007 Y1.2850  
G01 X-0.0995 Y1.2929  
G01 X-0.0995 Y1.3008  
G01 X-0.1007 Y1.3087  
G01 X-0.1032 Y1.3162  
G01 X-0.1068 Y1.3233  
G01 X-0.1115 Y1.3297  
G01 X-0.1171 Y1.3354  
G01 X-0.1175 Y1.3356  
G01 X-0.0846 Y1.6009  
G01 X-0.0764 Y1.6036  
G01 X-0.0683 Y1.6077  
G01 X-0.0610 Y1.6130  
G01 X-0.0546 Y1.6194  
G01 X-0.0492 Y1.6267  
G01 X-0.0451 Y1.6348  
G01 X-0.0423 Y1.6434  
G01 X-0.0409 Y1.6523  
G01 X-0.0409 Y1.7614  
G01 X-0.0423 Y1.7703  
G01 X-0.0451 Y1.7789  
G01 X-0.0492 Y1.7870  
G01 X-0.0546 Y1.7943  
G01 X-0.0610 Y1.8007  
G01 X-0.0683 Y1.8060  
G01 X-0.0725 Y1.8082  
G01 X-0.0725 Y1.9685  
G01 X-0.0262 Y2.0612  
G01 X-0.0256 Y2.0620  
G01 X-0.0250 Y2.0636  
G01 X-0.0242 Y2.0651  
G01 X-0.0239 Y2.0661  
G01 X-0.0236 Y2.0670  
G01 X-0.0232 Y2.0687  
G01 X-0.0228 Y2.0703  
G01 X-0.0227 Y2.0713  
G01 X-0.0225 Y2.0723  
G01 X-0.0225 Y2.0740  
G01 X-0.0224 Y2.0758  
G01 X-0.0225 Y2.0767  
G01 X-0.0225 Y2.3777  
G01 X-0.0236 Y2.3830  
G01 X-0.0256 Y2.3880  
G01 X-0.0286 Y2.3925  
G01 X-0.1067 Y2.4706  
G01 X-0.1032 Y2.4775  
G01 X-0.1007 Y2.4850  
G01 X-0.0995 Y2.4929  
G01 X-0.0995 Y2.5008  
G01 X-0.1005 Y2.5074  
G01 X-0.0771 Y2.5309  
G01 X-0.0741 Y2.5354  
G01 X-0.0720 Y2.5404  
G01 X-0.0709 Y2.5457  
G01 X-0.0709 Y2.7963  
G01 X-0.0683 Y2.7977  
G01 X-0.0610 Y2.8030  
G01 X-0.0546 Y2.8094  
G01 X-0.0492 Y2.8167  
G01 X-0.0451 Y2.8248  
G01 X-0.0423 Y2.8334  
G01 X-0.0409 Y2.8423  
G01 X-0.0409 Y2.9514  
G01 X-0.0423 Y2.9603  
G01 X-0.0451 Y2.9689  
G01 X-0.0492 Y2.9770  
G01 X-0.0546 Y2.9843  
G01 X-0.0610 Y2.9907  
G01 X-0.0683 Y2.9960  
G01 X-0.0764 Y3.0001  
G01 X-0.0850 Y3.0029  
G01 X-0.0939 Y3.0044  
G01 X-0.1030 Y3.0044  
G01 X-0.1119 Y3.0029  
G01 X-0.1205 Y3.0001  
G01 X-0.1286 Y2.9960  
G01 X-0.1359 Y2.9907  
G01 X-0.1423 Y2.9843  
G01 X-0.1476 Y2.9770  
G01 X-0.1517 Y2.9689  
G01 X-0.1545 Y2.9603  
G01 X-0.1559 Y2.9514  
G01 X-0.1559 Y2.8423  
G01 X-0.1545 Y2.8334  
G01 X-0.1517 Y2.8248  
G01 X-0.1476 Y2.8167  
G01 X-0.1423 Y2.8094  
G01 X-0.1359 Y2.8030  
G01 X-0.1286 Y2.7977  
G01 X-0.1259 Y2.7963  
G01 X-0.1259 Y2.5598  
G01 X-0.1394 Y2.5463  
G01 X-0.1460 Y2.5474  
G01 X-0.1540 Y2.5474  
G01 X-0.1578 Y2.5467  
G01 X-0.1825 Y2.5714  
G01 X-0.1870 Y2.5744  
G01 X-0.1920 Y2.5764  
G01 X-0.1973 Y2.5775  
G01 X-0.4301 Y2.5775  
G01 X-0.4361 Y2.5835  
G01 X-0.4639 Y2.5835  
G01 X-0.4835 Y2.5639  
G01 X-0.4835 Y2.5603  
G01 X-0.7836 Y2.3525  
G01 X-1.0237 Y2.3525  
G01 X-1.0250 Y2.3526  
G01 X-1.0264 Y2.3525  
G01 X-1.0277 Y2.3525  
G01 X-1.0291 Y2.3522  
G01 X-1.0304 Y2.3521  
G01 X-1.0317 Y2.3517  
G01 X-1.0330 Y2.3514  
G01 X-1.0343 Y2.3509  
G01 X-1.0356 Y2.3505  
G01 X-1.0368 Y2.3499  
G01 X-1.0380 Y2.3494  
G01 X-1.0392 Y2.3486  
G01 X-1.0404 Y2.3480  
G01 X-1.0414 Y2.3471  
G01 X-1.0425 Y2.3464  
G01 X-1.0435 Y2.3454  
G01 X-1.0446 Y2.3445  
G01 X-1.0454 Y2.3435  
G01 X-1.0464 Y2.3425  
G01 X-1.0471 Y2.3414  
G01 X-1.2672 Y2.0724  
G01 X-1.3116 Y2.0690  
G01 X-1.3161 Y2.0735  
G01 X-1.3439 Y2.0735  
G01 X-1.3635 Y2.0539  
G01 X-1.3635 Y2.0509  
G01 X-1.8079 Y1.7594  
G01 X-1.8080 Y1.7594  
G01 X-1.8102 Y1.7579  
G01 X-1.8123 Y1.7565  
G01 X-1.8125 Y1.7564  
G01 X-1.8144 Y1.7545  
G01 X-1.8162 Y1.7527  
G01 X-1.8164 Y1.7525  
G01 X-1.8178 Y1.7504  
G01 X-1.8193 Y1.7482  
G01 X-1.8193 Y1.7481  
G01 X-1.8204 Y1.7456  
G01 X-1.8214 Y1.7432  
G01 X-1.8214 Y1.7431  
G01 X-1.8214 Y1.7430  
G01 X-1.8219 Y1.7405  
G01 X-1.8225 Y1.7379  
G01 X-1.8225 Y1.7378  
G01 X-1.8225 Y1.7377  
G01 X-1.8225 Y1.7351  
G01 X-1.8225 Y1.7325  
G01 X-1.8225 Y1.7324  
G01 X-1.8225 Y0.8366  
G01 X-1.8226 Y0.8354  
G01 X-1.8225 Y0.8339  
G01 X-1.8225 Y0.8323  
G01 X-1.8223 Y0.8312  
G01 X-1.8222 Y0.8300  
G01 X-1.8218 Y0.8285  
G01 X-1.8214 Y0.8270  
G01 X-1.8210 Y0.8259  
G01 X-1.8207 Y0.8248  
G01 X-1.8200 Y0.8234  
G01 X-1.8194 Y0.8220  
G01 X-1.8187 Y0.8210  
G01 X-1.8182 Y0.8200  
G01 X-1.8172 Y0.8188  
G01 X-1.8164 Y0.8175  
G01 X-1.8156 Y0.8167  
G01 X-1.8149 Y0.8158  
G01 X-1.8136 Y0.8148  
G01 X-1.8125 Y0.8136  
G01 X-1.8116 Y0.8130  
G01 X-1.8107 Y0.8123  
G01 X-1.8093 Y0.8115  
G01 X-1.8080 Y0.8106  
G01 X-1.8070 Y0.8102  
G01 X-1.5875 Y0.6883  
G01 X-1.5875 Y0.6199  
G01 X-1.5935 Y0.6139  
G01 X-1.5935 Y0.5861  
G01 X-1.5911 Y0.5838  
G01 X-1.5914 Y0.5830  
G01 X-1.5925 Y0.5777  
G01 X-1.5925 Y0.4855  
G01 X-1.6740 Y0.2889  
G01 X-1.6754 Y0.2875  
G01 X-1.6815 Y0.2875  
G01 X-1.6842 Y0.2864  
G01 X-1.6864 Y0.2842  
G01 X-1.6875 Y0.2815  
G01 X-1.6875 Y0.2754  
G01 X-1.6945 Y0.2684  
G01 X-1.6945 Y0.2316  
G01 X-1.6875 Y0.2246  
G01 X-1.6875 Y0.1754  
G01 X-1.6945 Y0.1684  
G01 X-1.6945 Y0.1316  
G01 X-1.6875 Y0.1246  
G01 X-1.6875 Y0.1185  
G01 X-1.6864 Y0.1158  
G01 X-1.6842 Y0.1136  
G01 X-1.6815 Y0.1125  
G01 X-1.6754 Y0.1125  
G01 X-1.6684 Y0.1055  
G01 X-1.6316 Y0.1055  
G01 X-1.6246 Y0.1125  
G01 X-1.5754 Y0.1125  
G01 X-1.5684 Y0.1055  
G01 X-1.5316 Y0.1055  
G01 X-1.5246 Y0.1125  
G01 X-1.4754 Y0.1125  
G01 X-1.4684 Y0.1055  
G01 X-1.4316 Y0.1055  
G01 X-1.4246 Y0.1125  
G01 X-1.4185 Y0.1125  
G01 X-1.4158 Y0.1136  
G01 X-1.4136 Y0.1158  
G01 X-1.4125 Y0.1185  
G01 X-1.4125 Y0.1246  
G01 X-1.4055 Y0.1316  
G01 X-1.4055 Y0.1684  
G01 X-1.4125 Y0.1754  
G01 X-1.4125 Y0.2246  
G01 X-1.4055 Y0.2316  
G01 X-1.4055 Y0.2684  
G01 X-1.4125 Y0.2754  
G01 X-1.4125 Y0.2815  
G01 X-1.4136 Y0.2842  
G01 X-1.4158 Y0.2864  
G01 X-1.4178 Y0.2872  
G01 X-1.3670 Y0.3177  
G01 X-1.0717 Y0.3274  
G01 X-1.0690 Y0.3275  
G01 X-1.0664 Y0.3276  
G01 X-1.0663 Y0.3276  
G01 X-1.0637 Y0.3282  
G01 X-1.0611 Y0.3288  
G01 X-1.0610 Y0.3289  
G01 X-1.0586 Y0.3300  
G01 X-1.0562 Y0.3311  
G01 X-1.0561 Y0.3311  
G01 X-1.0539 Y0.3327  
G01 X-1.0518 Y0.3342  
G01 X-1.0517 Y0.3343  
G01 X-1.0499 Y0.3363  
G01 X-1.0481 Y0.3382  
G01 X-1.0480 Y0.3383  
G01 X-1.0466 Y0.3405  
G01 X-1.0452 Y0.3428  
G01 X-1.0452 Y0.3429  
G01 X-1.0442 Y0.3454  
G01 X-1.0433 Y0.3478  
G01 X-1.0433 Y0.3480  
G01 X-1.0429 Y0.3506  
G01 X-1.0424 Y0.3532  
G01 X-1.0064 Y0.5787  
G01 X-0.9358 Y0.5824  
G01 X-0.9353 Y0.5824  
G01 X-0.9331 Y0.5826  
G01 X-0.9308 Y0.5827  
G01 X-0.9304 Y0.5828  
G01 X-0.9299 Y0.5828  
G01 X-0.9278 Y0.5835  
G01 X-0.9256 Y0.5840  
G01 X-0.9252 Y0.5842  
G01 X-0.9247 Y0.5843  
G01 X-0.9227 Y0.5854  
G01 X-0.9207 Y0.5863  
G01 X-0.9203 Y0.5866  
G01 X-0.9199 Y0.5868  
G01 X-0.9182 Y0.5882  
G01 X-0.9164 Y0.5896  
G01 X-0.9161 Y0.5899  
G01 X-0.9147 Y0.5910  
G01 X-0.8938 Y0.5910  
G01 X-0.8753 Y0.6095  
G01 X-0.8170 Y0.6225  
G01 X-0.7777 Y0.6225  
G01 X-0.7775 Y0.6223  
G01 X-0.7775 Y0.5199  
G01 X-0.7835 Y0.5139  
G01 X-0.7835 Y0.4861  
G01 X-0.7639 Y0.4665  
G01 X-0.7361 Y0.4665  
G01 X-0.7165 Y0.4861  
G01 X-0.7165 Y0.5139  
G01 X-0.7225 Y0.5199  
G01 X-0.7225 Y0.6223  
G01 X-0.7110 Y0.6338  
G01 X-0.7110 Y0.6662  
G01 X-0.7338 Y0.6890  
G01 X-0.7662 Y0.6890  
G01 X-0.7777 Y0.6775  
G01 X-0.8176 Y0.6775  
G01 X-0.8179 Y0.6776  
G01 X-0.8203 Y0.6775  
G01 X-0.8227 Y0.6775  
G01 X-0.8230 Y0.6774  
G01 X-0.8233 Y0.6774  
G01 X-0.8257 Y0.6769  
G01 X-0.8280 Y0.6764  
G01 X-0.8283 Y0.6763  
G01 X-0.8879 Y0.6631  
G01 X-0.8938 Y0.6690  
G01 X-0.9262 Y0.6690  
G01 X-0.9490 Y0.6462  
G01 X-0.9490 Y0.6368  
G01 X-1.0085 Y0.6337  
G01 X-1.0665 Y0.8779  
G01 X-1.0665 Y0.9293  
G01 X-1.0678 Y0.9358  
G01 X-1.0703 Y0.9419  
G01 X-1.0740 Y0.9474  
G01 X-1.0786 Y0.9520  
G01 X-1.0841 Y0.9557  
G01 X-1.0902 Y0.9582  
G01 X-1.0967 Y0.9595  
G01 X-1.1033 Y0.9595  
G01 X-1.1098 Y0.9582  
G01 X-1.1159 Y0.9557  
G01 X-1.1214 Y0.9520  
G01 X-1.1260 Y0.9474  
G01 X-1.1297 Y0.9419  
G01 X-1.1322 Y0.9358  
G01 X-1.1335 Y0.9293  
G01 X-1.1335 Y0.8707  
G01 X-1.1322 Y0.8642  
G01 X-1.1297 Y0.8581  
G01 X-1.1260 Y0.8526  
G01 X-1.1214 Y0.8480  
G01 X-1.1159 Y0.8443  
G01 X-1.1150 Y0.8439  
G01 X-1.0580 Y0.6040  
G01 X-1.0936 Y0.3817  
G01 X-1.3748 Y0.3725  
G01 X-1.3764 Y0.3726  
G01 X-1.3775 Y0.3724  
G01 X-1.3786 Y0.3724  
G01 X-1.3802 Y0.3720  
G01 X-1.3817 Y0.3718  
G01 X-1.3828 Y0.3714  
G01 X-1.3839 Y0.3712  
G01 X-1.3853 Y0.3705  
G01 X-1.3868 Y0.3700  
G01 X-1.3878 Y0.3694  
G01 X-1.3888 Y0.3689  
G01 X-1.3901 Y0.3680  
G01 X-1.4665 Y0.3222  
G01 X-1.4705 Y0.3185  
G01 X-1.4737 Y0.3142  
G01 X-1.4760 Y0.3093  
G01 X-1.4773 Y0.3040  
G01 X-1.4776 Y0.2986  
G01 X-1.4768 Y0.2933  
G01 X-1.4750 Y0.2882  
G01 X-1.4749 Y0.2880  
G01 X-1.4754 Y0.2875  
G01 X-1.5145 Y0.2875  
G01 X-1.5047 Y0.3364  
G01 X-1.4377 Y0.4034  
G01 X-1.1989 Y0.4225  
G01 X-1.1973 Y0.4225  
G01 X-1.1962 Y0.4227  
G01 X-1.1951 Y0.4228  
G01 X-1.1936 Y0.4232  
G01 X-1.1920 Y0.4236  
G01 X-1.1910 Y0.4240  
G01 X-1.1899 Y0.4243  
G01 X-1.1885 Y0.4250  
G01 X-1.1870 Y0.4256  
G01 X-1.1861 Y0.4262  
G01 X-1.1851 Y0.4267  
G01 X-1.1838 Y0.4277  
G01 X-1.1825 Y0.4286  
G01 X-1.1817 Y0.4294  
G01 X-1.1808 Y0.4301  
G01 X-1.1798 Y0.4313  
G01 X-1.1286 Y0.4825  
G01 X-1.1256 Y0.4870  
G01 X-1.1236 Y0.4920  
G01 X-1.1225 Y0.4973  
G01 X-1.1225 Y0.5976  
G01 X-1.1224 Y0.5979  
G01 X-1.1225 Y0.6003  
G01 X-1.1225 Y0.6027  
G01 X-1.1226 Y0.6030  
G01 X-1.1226 Y0.6033  
G01 X-1.1231 Y0.6057  
G01 X-1.1236 Y0.6080  
G01 X-1.1237 Y0.6083  
G01 X-1.1628 Y0.7841  
G01 X-1.1691 Y0.8609  
G01 X-1.1678 Y0.8642  
G01 X-1.1665 Y0.8707  
G01 X-1.1665 Y0.9293  
G01 X-1.1678 Y0.9358  
G01 X-1.1703 Y0.9419  
G01 X-1.1723 Y0.9448  
G01 X-1.1519 Y0.9925  
G01 X-0.7814 Y0.9925  
G01 X-0.3144 Y0.5255  
G01 X-0.3099 Y0.5225  
G01 X-0.3049 Y0.5204  
G01 X-0.2996 Y0.5194  
G01 X-0.1924 Y0.5194  
G01 X-0.1885 Y0.5140  
G01 X-0.1829 Y0.5083  
G01 X-0.1765 Y0.5037  
G01 X-0.1694 Y0.5001  
G01 X-0.1618 Y0.4976  
G01 X-0.1540 Y0.4964  
G01 X-0.1460 Y0.4964  
G01 X-0.1382 Y0.4976  
G01 X-0.1306 Y0.5001  
G01 X-0.1235 Y0.5037  
G01 X-0.1171 Y0.5083  
G01 X-0.1115 Y0.5140  
G00 Z0.0500  
G00 X-0.1115 Y0.8703  
G01 Z-0.0035 F10    
G01 X-0.1068 Y0.8767  F20    
G01 X-0.1032 Y0.8838  
G01 X-0.1007 Y0.8913  
G01 X-0.0995 Y0.8992  
G01 X-0.0995 Y0.9071  
G01 X-0.1007 Y0.9150  
G01 X-0.1032 Y0.9225  
G01 X-0.1068 Y0.9296  
G01 X-0.1115 Y0.9360  
G01 X-0.1171 Y0.9417  
G01 X-0.1235 Y0.9463  
G01 X-0.1306 Y0.9499  
G01 X-0.1382 Y0.9524  
G01 X-0.1460 Y0.9536  
G01 X-0.1540 Y0.9536  
G01 X-0.1618 Y0.9524  
G01 X-0.1694 Y0.9499  
G01 X-0.1765 Y0.9463  
G01 X-0.1829 Y0.9417  
G01 X-0.1885 Y0.9360  
G01 X-0.1932 Y0.9296  
G01 X-0.1968 Y0.9225  
G01 X-0.1970 Y0.9220  
G01 X-0.4555 Y0.8907  
G01 X-0.4638 Y0.8990  
G01 X-0.4962 Y0.8990  
G01 X-0.5190 Y0.8762  
G01 X-0.5190 Y0.8438  
G01 X-0.4962 Y0.8210  
G01 X-0.4638 Y0.8210  
G01 X-0.4488 Y0.8361  
G01 X-0.1862 Y0.8679  
G01 X-0.1829 Y0.8646  
G01 X-0.1765 Y0.8600  
G01 X-0.1694 Y0.8563  
G01 X-0.1618 Y0.8539  
G01 X-0.1540 Y0.8526  
G01 X-0.1460 Y0.8526  
G01 X-0.1382 Y0.8539  
G01 X-0.1306 Y0.8563  
G01 X-0.1235 Y0.8600  
G01 X-0.1171 Y0.8646  
G01 X-0.1115 Y0.8703  
G00 Z0.0500  
G00 X-0.1115 Y1.0671  
G01 Z-0.0035 F10    
G01 X-0.1068 Y1.0735  F20    
G01 X-0.1032 Y1.0806  
G01 X-0.1007 Y1.0882  
G01 X-0.0995 Y1.0960  
G01 X-0.0995 Y1.1040  
G01 X-0.1007 Y1.1118  
G01 X-0.1032 Y1.1194  
G01 X-0.1068 Y1.1265  
G01 X-0.1115 Y1.1329  
G01 X-0.1171 Y1.1385  
G01 X-0.1235 Y1.1432  
G01 X-0.1306 Y1.1468  
G01 X-0.1382 Y1.1493  
G01 X-0.1460 Y1.1505  
G01 X-0.1540 Y1.1505  
G01 X-0.1618 Y1.1493  
G01 X-0.1694 Y1.1468  
G01 X-0.1765 Y1.1432  
G01 X-0.1829 Y1.1385  
G01 X-0.1885 Y1.1329  
G01 X-0.1932 Y1.1265  
G01 X-0.3313 Y1.1035  
G01 X-0.3539 Y1.1035  
G01 X-0.3735 Y1.0839  
G01 X-0.3735 Y1.0561  
G01 X-0.3539 Y1.0365  
G01 X-0.3261 Y1.0365  
G01 X-0.3116 Y1.0510  
G01 X-0.1914 Y1.0711  
G01 X-0.1885 Y1.0671  
G01 X-0.1829 Y1.0615  
G01 X-0.1765 Y1.0568  
G01 X-0.1694 Y1.0532  
G01 X-0.1618 Y1.0507  
G01 X-0.1540 Y1.0495  
G01 X-0.1460 Y1.0495  
G01 X-0.1382 Y1.0507  
G01 X-0.1306 Y1.0532  
G01 X-0.1235 Y1.0568  
G01 X-0.1171 Y1.0615  
G01 X-0.1115 Y1.0671  
G00 Z0.0500  
G00 X-0.4542 Y0.9894  
G01 Z-0.0035 F10    
G01 X-0.4725 Y1.2913  F20    
G01 X-0.4726 Y1.2937  
G01 X-0.4727 Y1.2940  
G01 X-0.4727 Y1.2944  
G01 X-0.4733 Y1.2966  
G01 X-0.4739 Y1.2989  
G01 X-0.4740 Y1.2993  
G01 X-0.4741 Y1.2996  
G01 X-0.4751 Y1.3017  
G01 X-0.4761 Y1.3039  
G01 X-0.4763 Y1.3042  
G01 X-0.4765 Y1.3045  
G01 X-0.4779 Y1.3063  
G01 X-0.4793 Y1.3083  
G01 X-0.4795 Y1.3085  
G01 X-0.4797 Y1.3088  
G01 X-0.4815 Y1.3103  
G01 X-0.4832 Y1.3120  
G01 X-0.4835 Y1.3121  
G01 X-0.4838 Y1.3124  
G01 X-0.4858 Y1.3136  
G01 X-0.5861 Y1.3757  
G01 X-0.6693 Y1.4865  
G01 X-0.7729 Y2.0047  
G01 X-0.7732 Y2.0067  
G01 X-0.7734 Y2.0074  
G01 X-0.7736 Y2.0080  
G01 X-0.7743 Y2.0099  
G01 X-0.7750 Y2.0118  
G01 X-0.7754 Y2.0124  
G01 X-0.7756 Y2.0131  
G01 X-0.7768 Y2.0147  
G01 X-0.7778 Y2.0165  
G01 X-0.7783 Y2.0170  
G01 X-0.7787 Y2.0176  
G01 X-0.7801 Y2.0190  
G01 X-0.7815 Y2.0205  
G01 X-0.7820 Y2.0209  
G01 X-0.7825 Y2.0214  
G01 X-0.7842 Y2.0225  
G01 X-0.7858 Y2.0237  
G01 X-0.7864 Y2.0240  
G01 X-0.7870 Y2.0244  
G01 X-0.7889 Y2.0252  
G01 X-0.7907 Y2.0260  
G01 X-0.7914 Y2.0262  
G01 X-0.7920 Y2.0265  
G01 X-0.7940 Y2.0268  
G01 X-0.9746 Y2.0720  
G01 X-0.9861 Y2.0835  
G01 X-1.0139 Y2.0835  
G01 X-1.0335 Y2.0639  
G01 X-1.0335 Y2.0476  
G01 X-1.0982 Y1.9397  
G01 X-1.0994 Y1.9380  
G01 X-1.0996 Y1.9374  
G01 X-1.1000 Y1.9368  
G01 X-1.1007 Y1.9349  
G01 X-1.1014 Y1.9330  
G01 X-1.1016 Y1.9324  
G01 X-1.1018 Y1.9317  
G01 X-1.1021 Y1.9297  
G01 X-1.1025 Y1.9277  
G01 X-1.1025 Y1.9270  
G01 X-1.1026 Y1.9264  
G01 X-1.1025 Y1.9243  
G01 X-1.1025 Y1.8777  
G01 X-1.1232 Y1.7742  
G01 X-1.1335 Y1.7639  
G01 X-1.1335 Y1.7361  
G01 X-1.1139 Y1.7165  
G01 X-1.0861 Y1.7165  
G01 X-1.0665 Y1.7361  
G01 X-1.0665 Y1.7639  
G01 X-1.0687 Y1.7661  
G01 X-1.0486 Y1.8670  
G01 X-1.0480 Y1.8696  
G01 X-1.0475 Y1.8723  
G01 X-1.0475 Y1.8750  
G01 X-1.0475 Y1.8777  
G01 X-1.0475 Y1.9174  
G01 X-0.9880 Y2.0165  
G01 X-0.9861 Y2.0165  
G01 X-0.9848 Y2.0178  
G01 X-0.8236 Y1.9775  
G01 X-0.7224 Y1.4715  
G01 X-0.7223 Y1.4708  
G01 X-0.7218 Y1.4689  
G01 X-0.7214 Y1.4670  
G01 X-0.7212 Y1.4663  
G01 X-0.7210 Y1.4656  
G01 X-0.7201 Y1.4638  
G01 X-0.7194 Y1.4619  
G01 X-0.7189 Y1.4613  
G01 X-0.7186 Y1.4607  
G01 X-0.7174 Y1.4591  
G01 X-0.7163 Y1.4574  
G01 X-0.7158 Y1.4569  
G01 X-0.6272 Y1.3387  
G01 X-0.6257 Y1.3367  
G01 X-0.6255 Y1.3366  
G01 X-0.6254 Y1.3363  
G01 X-0.6236 Y1.3347  
G01 X-0.6218 Y1.3330  
G01 X-0.6215 Y1.3329  
G01 X-0.6213 Y1.3327  
G01 X-0.6192 Y1.3315  
G01 X-0.5266 Y1.2741  
G01 X-0.5091 Y0.9860  
G01 X-0.5103 Y0.9849  
G01 X-0.5146 Y0.9785  
G01 X-0.5175 Y0.9714  
G01 X-0.5190 Y0.9638  
G01 X-0.5190 Y0.9562  
G01 X-0.5175 Y0.9486  
G01 X-0.5146 Y0.9415  
G01 X-0.5103 Y0.9351  
G01 X-0.5049 Y0.9297  
G01 X-0.4985 Y0.9254  
G01 X-0.4914 Y0.9225  
G01 X-0.4838 Y0.9210  
G01 X-0.4762 Y0.9210  
G01 X-0.4686 Y0.9225  
G01 X-0.4615 Y0.9254  
G01 X-0.4551 Y0.9297  
G01 X-0.4497 Y0.9351  
G01 X-0.4454 Y0.9415  
G01 X-0.4425 Y0.9486  
G01 X-0.4410 Y0.9562  
G01 X-0.4410 Y0.9638  
G01 X-0.4425 Y0.9714  
G01 X-0.4454 Y0.9785  
G01 X-0.4497 Y0.9849  
G01 X-0.4542 Y0.9894  
G00 Z0.0500  
G00 X-0.6065 Y1.0561  
G01 Z-0.0035 F10    
G01 X-0.6065 Y1.0839  F20    
G01 X-0.6109 Y1.0883  
G01 X-0.5905 Y1.1324  
G01 X-0.5898 Y1.1337  
G01 X-0.5894 Y1.1349  
G01 X-0.5889 Y1.1359  
G01 X-0.5885 Y1.1374  
G01 X-0.5740 Y1.1810  
G01 X-0.5738 Y1.1810  
G01 X-0.5510 Y1.2038  
G01 X-0.5510 Y1.2362  
G01 X-0.5738 Y1.2590  
G01 X-0.6062 Y1.2590  
G01 X-0.6290 Y1.2362  
G01 X-0.6290 Y1.2038  
G01 X-0.6255 Y1.2004  
G01 X-0.6406 Y1.1551  
G01 X-0.6711 Y1.0891  
G01 X-0.6720 Y1.0854  
G01 X-0.6735 Y1.0839  
G01 X-0.6735 Y1.0561  
G01 X-0.6539 Y1.0365  
G01 X-0.6261 Y1.0365  
G01 X-0.6065 Y1.0561  
G00 Z0.0500  
G00 X-0.6597 Y1.1951  
G01 Z-0.0035 F10    
G01 X-0.6554 Y1.2015  F20    
G01 X-0.6525 Y1.2086  
G01 X-0.6510 Y1.2162  
G01 X-0.6510 Y1.2238  
G01 X-0.6525 Y1.2314  
G01 X-0.6554 Y1.2385  
G01 X-0.6597 Y1.2449  
G01 X-0.6651 Y1.2503  
G01 X-0.6683 Y1.2524  
G01 X-0.6928 Y1.3794  
G01 X-0.6931 Y1.3812  
G01 X-0.6933 Y1.3820  
G01 X-0.6935 Y1.3829  
G01 X-0.6942 Y1.3846  
G01 X-0.6948 Y1.3863  
G01 X-0.6952 Y1.3871  
G01 X-0.6956 Y1.3879  
G01 X-0.6966 Y1.3894  
G01 X-0.8848 Y1.7178  
G01 X-0.8665 Y1.7361  
G01 X-0.8665 Y1.7639  
G01 X-0.8725 Y1.7699  
G01 X-0.8725 Y1.8801  
G01 X-0.8665 Y1.8861  
G01 X-0.8665 Y1.9139  
G01 X-0.8861 Y1.9335  
G01 X-0.9139 Y1.9335  
G01 X-0.9199 Y1.9275  
G01 X-0.9501 Y1.9275  
G01 X-0.9561 Y1.9335  
G01 X-0.9839 Y1.9335  
G01 X-1.0035 Y1.9139  
G01 X-1.0035 Y1.8861  
G01 X-0.9839 Y1.8665  
G01 X-0.9561 Y1.8665  
G01 X-0.9501 Y1.8725  
G01 X-0.9275 Y1.8725  
G01 X-0.9275 Y1.7775  
G01 X-0.9341 Y1.7775  
G01 X-0.9358 Y1.7776  
G01 X-0.9368 Y1.7775  
G01 X-0.9801 Y1.7775  
G01 X-0.9861 Y1.7835  
G01 X-1.0139 Y1.7835  
G01 X-1.0335 Y1.7639  
G01 X-1.0335 Y1.7361  
G01 X-1.0139 Y1.7165  
G01 X-0.9861 Y1.7165  
G01 X-0.9801 Y1.7225  
G01 X-0.9509 Y1.7225  
G01 X-0.7461 Y1.3653  
G01 X-0.7223 Y1.2419  
G01 X-0.7246 Y1.2385  
G01 X-0.7275 Y1.2314  
G01 X-0.7290 Y1.2238  
G01 X-0.7290 Y1.2162  
G01 X-0.7275 Y1.2086  
G01 X-0.7246 Y1.2015  
G01 X-0.7203 Y1.1951  
G01 X-0.7149 Y1.1897  
G01 X-0.7085 Y1.1854  
G01 X-0.7014 Y1.1825  
G01 X-0.6938 Y1.1810  
G01 X-0.6862 Y1.1810  
G01 X-0.6786 Y1.1825  
G01 X-0.6715 Y1.1854  
G01 X-0.6651 Y1.1897  
G01 X-0.6597 Y1.1951  
G00 Z0.0500  
G00 X-0.8665 Y1.2007  
G01 Z-0.0035 F10    
G01 X-0.7893 Y1.3165  F20    
G01 X-0.7861 Y1.3165  
G01 X-0.7665 Y1.3361  
G01 X-0.7665 Y1.3639  
G01 X-0.7861 Y1.3835  
G01 X-0.7946 Y1.3835  
G01 X-0.8665 Y1.4554  
G01 X-0.8665 Y1.4639  
G01 X-0.8861 Y1.4835  
G01 X-0.9139 Y1.4835  
G01 X-0.9335 Y1.4639  
G01 X-0.9335 Y1.4361  
G01 X-0.9139 Y1.4165  
G01 X-0.9054 Y1.4165  
G01 X-0.8354 Y1.3465  
G01 X-0.8938 Y1.2589  
G01 X-0.8967 Y1.2595  
G01 X-0.9033 Y1.2595  
G01 X-0.9098 Y1.2582  
G01 X-0.9159 Y1.2557  
G01 X-0.9214 Y1.2520  
G01 X-0.9260 Y1.2474  
G01 X-0.9297 Y1.2419  
G01 X-0.9322 Y1.2358  
G01 X-0.9335 Y1.2293  
G01 X-0.9335 Y1.1707  
G01 X-0.9322 Y1.1642  
G01 X-0.9297 Y1.1581  
G01 X-0.9260 Y1.1526  
G01 X-0.9214 Y1.1480  
G01 X-0.9159 Y1.1443  
G01 X-0.9098 Y1.1418  
G01 X-0.9033 Y1.1405  
G01 X-0.8967 Y1.1405  
G01 X-0.8902 Y1.1418  
G01 X-0.8841 Y1.1443  
G01 X-0.8786 Y1.1480  
G01 X-0.8740 Y1.1526  
G01 X-0.8703 Y1.1581  
G01 X-0.8678 Y1.1642  
G01 X-0.8665 Y1.1707  
G01 X-0.8665 Y1.2007  
G00 Z0.0500  
G00 X-0.9665 Y1.2293  
G01 Z-0.0035 F10    
G01 X-0.9678 Y1.2358  F20    
G01 X-0.9703 Y1.2419  
G01 X-0.9725 Y1.2451  
G01 X-0.9725 Y1.3301  
G01 X-0.9665 Y1.3361  
G01 X-0.9665 Y1.3639  
G01 X-0.9725 Y1.3699  
G01 X-0.9725 Y1.4301  
G01 X-0.9665 Y1.4361  
G01 X-0.9665 Y1.4639  
G01 X-0.9725 Y1.4699  
G01 X-0.9725 Y1.5027  
G01 X-0.9736 Y1.5080  
G01 X-0.9756 Y1.5130  
G01 X-0.9786 Y1.5175  
G01 X-0.9825 Y1.5214  
G01 X-1.0825 Y1.6214  
G01 X-1.0870 Y1.6244  
G01 X-1.0920 Y1.6264  
G01 X-1.0973 Y1.6275  
G01 X-1.3886 Y1.6275  
G01 X-1.4725 Y1.7114  
G01 X-1.4725 Y1.7801  
G01 X-1.4665 Y1.7861  
G01 X-1.4665 Y1.8139  
G01 X-1.4861 Y1.8335  
G01 X-1.5139 Y1.8335  
G01 X-1.5335 Y1.8139  
G01 X-1.5335 Y1.7861  
G01 X-1.5275 Y1.7801  
G01 X-1.5275 Y1.6973  
G01 X-1.5264 Y1.6920  
G01 X-1.5244 Y1.6870  
G01 X-1.5214 Y1.6825  
G01 X-1.4175 Y1.5786  
G01 X-1.4130 Y1.5756  
G01 X-1.4080 Y1.5736  
G01 X-1.4027 Y1.5725  
G01 X-1.1114 Y1.5725  
G01 X-1.0275 Y1.4886  
G01 X-1.0275 Y1.4699  
G01 X-1.0335 Y1.4639  
G01 X-1.0335 Y1.4361  
G01 X-1.0275 Y1.4301  
G01 X-1.0275 Y1.3699  
G01 X-1.0335 Y1.3639  
G01 X-1.0335 Y1.3361  
G01 X-1.0275 Y1.3301  
G01 X-1.0275 Y1.2451  
G01 X-1.0297 Y1.2419  
G01 X-1.0322 Y1.2358  
G01 X-1.0335 Y1.2293  
G01 X-1.0335 Y1.1707  
G01 X-1.0322 Y1.1642  
G01 X-1.0297 Y1.1581  
G01 X-1.0260 Y1.1526  
G01 X-1.0214 Y1.1480  
G01 X-1.0159 Y1.1443  
G01 X-1.0098 Y1.1418  
G01 X-1.0033 Y1.1405  
G01 X-0.9967 Y1.1405  
G01 X-0.9902 Y1.1418  
G01 X-0.9841 Y1.1443  
G01 X-0.9786 Y1.1480  
G01 X-0.9740 Y1.1526  
G01 X-0.9703 Y1.1581  
G01 X-0.9678 Y1.1642  
G01 X-0.9665 Y1.1707  
G01 X-0.9665 Y1.2293  
G00 Z0.0500  
G00 X-1.0665 Y1.2293  
G01 Z-0.0035 F10    
G01 X-1.0678 Y1.2358  F20    
G01 X-1.0697 Y1.2405  
G01 X-1.0639 Y1.3288  
G01 X-1.0565 Y1.3361  
G01 X-1.0565 Y1.3639  
G01 X-1.0646 Y1.3719  
G01 X-1.0706 Y1.4321  
G01 X-1.0665 Y1.4361  
G01 X-1.0665 Y1.4639  
G01 X-1.0861 Y1.4835  
G01 X-1.1139 Y1.4835  
G01 X-1.1199 Y1.4775  
G01 X-1.1801 Y1.4775  
G01 X-1.1861 Y1.4835  
G01 X-1.2139 Y1.4835  
G01 X-1.2335 Y1.4639  
G01 X-1.2335 Y1.4361  
G01 X-1.2139 Y1.4165  
G01 X-1.1861 Y1.4165  
G01 X-1.1801 Y1.4225  
G01 X-1.1249 Y1.4225  
G01 X-1.1194 Y1.3679  
G01 X-1.1235 Y1.3639  
G01 X-1.1235 Y1.3361  
G01 X-1.1188 Y1.3314  
G01 X-1.1243 Y1.2491  
G01 X-1.1260 Y1.2474  
G01 X-1.1297 Y1.2419  
G01 X-1.1322 Y1.2358  
G01 X-1.1335 Y1.2293  
G01 X-1.1335 Y1.1707  
G01 X-1.1322 Y1.1642  
G01 X-1.1297 Y1.1581  
G01 X-1.1260 Y1.1526  
G01 X-1.1214 Y1.1480  
G01 X-1.1159 Y1.1443  
G01 X-1.1098 Y1.1418  
G01 X-1.1033 Y1.1405  
G01 X-1.0967 Y1.1405  
G01 X-1.0902 Y1.1418  
G01 X-1.0841 Y1.1443  
G01 X-1.0786 Y1.1480  
G01 X-1.0740 Y1.1526  
G01 X-1.0703 Y1.1581  
G01 X-1.0678 Y1.1642  
G01 X-1.0665 Y1.1707  
G01 X-1.0665 Y1.2293  
G00 Z0.0500  
G00 X-1.1665 Y1.2293  
G01 Z-0.0035 F10    
G01 X-1.1678 Y1.2358  F20    
G01 X-1.1703 Y1.2419  
G01 X-1.1725 Y1.2451  
G01 X-1.1725 Y1.2493  
G01 X-1.1724 Y1.2513  
G01 X-1.1725 Y1.2520  
G01 X-1.1725 Y1.2527  
G01 X-1.1729 Y1.2547  
G01 X-1.1732 Y1.2566  
G01 X-1.1734 Y1.2573  
G01 X-1.1736 Y1.2580  
G01 X-1.1743 Y1.2599  
G01 X-1.1750 Y1.2617  
G01 X-1.1754 Y1.2624  
G01 X-1.1756 Y1.2630  
G01 X-1.1767 Y1.2647  
G01 X-1.1777 Y1.2664  
G01 X-1.1782 Y1.2669  
G01 X-1.1786 Y1.2675  
G01 X-1.1800 Y1.2689  
G01 X-1.2565 Y1.3539  
G01 X-1.2565 Y1.3639  
G01 X-1.2646 Y1.3719  
G01 X-1.2706 Y1.4321  
G01 X-1.2665 Y1.4361  
G01 X-1.2665 Y1.4639  
G01 X-1.2861 Y1.4835  
G01 X-1.3139 Y1.4835  
G01 X-1.3335 Y1.4639  
G01 X-1.3335 Y1.4361  
G01 X-1.3254 Y1.4281  
G01 X-1.3194 Y1.3679  
G01 X-1.3235 Y1.3639  
G01 X-1.3235 Y1.3361  
G01 X-1.3039 Y1.3165  
G01 X-1.2968 Y1.3165  
G01 X-1.2297 Y1.2419  
G01 X-1.2322 Y1.2358  
G01 X-1.2335 Y1.2293  
G01 X-1.2335 Y1.1707  
G01 X-1.2322 Y1.1642  
G01 X-1.2297 Y1.1581  
G01 X-1.2260 Y1.1526  
G01 X-1.2214 Y1.1480  
G01 X-1.2159 Y1.1443  
G01 X-1.2098 Y1.1418  
G01 X-1.2033 Y1.1405  
G01 X-1.1967 Y1.1405  
G01 X-1.1902 Y1.1418  
G01 X-1.1841 Y1.1443  
G01 X-1.1786 Y1.1480  
G01 X-1.1740 Y1.1526  
G01 X-1.1703 Y1.1581  
G01 X-1.1678 Y1.1642  
G01 X-1.1665 Y1.1707  
G01 X-1.1665 Y1.2293  
G00 Z0.0500  
G00 X-1.2665 Y1.2293  
G01 Z-0.0035 F10    
G01 X-1.2678 Y1.2358  F20    
G01 X-1.2703 Y1.2419  
G01 X-1.2725 Y1.2451  
G01 X-1.2725 Y1.2527  
G01 X-1.2736 Y1.2580  
G01 X-1.2756 Y1.2630  
G01 X-1.2786 Y1.2675  
G01 X-1.3665 Y1.3554  
G01 X-1.3665 Y1.3639  
G01 X-1.3725 Y1.3699  
G01 X-1.3725 Y1.4301  
G01 X-1.3665 Y1.4361  
G01 X-1.3665 Y1.4639  
G01 X-1.3861 Y1.4835  
G01 X-1.4139 Y1.4835  
G01 X-1.4335 Y1.4639  
G01 X-1.4335 Y1.4361  
G01 X-1.4275 Y1.4301  
G01 X-1.4275 Y1.3699  
G01 X-1.4335 Y1.3639  
G01 X-1.4335 Y1.3361  
G01 X-1.4139 Y1.3165  
G01 X-1.4054 Y1.3165  
G01 X-1.3300 Y1.2411  
G01 X-1.3322 Y1.2358  
G01 X-1.3335 Y1.2293  
G01 X-1.3335 Y1.1707  
G01 X-1.3322 Y1.1642  
G01 X-1.3297 Y1.1581  
G01 X-1.3260 Y1.1526  
G01 X-1.3214 Y1.1480  
G01 X-1.3159 Y1.1443  
G01 X-1.3098 Y1.1418  
G01 X-1.3033 Y1.1405  
G01 X-1.2967 Y1.1405  
G01 X-1.2902 Y1.1418  
G01 X-1.2841 Y1.1443  
G01 X-1.2786 Y1.1480  
G01 X-1.2740 Y1.1526  
G01 X-1.2703 Y1.1581  
G01 X-1.2678 Y1.1642  
G01 X-1.2665 Y1.1707  
G01 X-1.2665 Y1.2293  
G00 Z0.0500  
G00 X-1.3665 Y1.2293  
G01 Z-0.0035 F10    
G01 X-1.3678 Y1.2358  F20    
G01 X-1.3703 Y1.2419  
G01 X-1.3740 Y1.2474  
G01 X-1.3786 Y1.2520  
G01 X-1.3841 Y1.2557  
G01 X-1.3902 Y1.2582  
G01 X-1.3953 Y1.2592  
G01 X-1.5036 Y1.3675  
G01 X-1.5075 Y1.3714  
G01 X-1.5120 Y1.3744  
G01 X-1.5170 Y1.3764  
G01 X-1.5223 Y1.3775  
G01 X-1.5801 Y1.3775  
G01 X-1.5861 Y1.3835  
G01 X-1.6139 Y1.3835  
G01 X-1.6335 Y1.3639  
G01 X-1.6335 Y1.3361  
G01 X-1.6139 Y1.3165  
G01 X-1.5861 Y1.3165  
G01 X-1.5801 Y1.3225  
G01 X-1.5364 Y1.3225  
G01 X-1.4335 Y1.2196  
G01 X-1.4335 Y1.1707  
G01 X-1.4322 Y1.1642  
G01 X-1.4297 Y1.1581  
G01 X-1.4260 Y1.1526  
G01 X-1.4214 Y1.1480  
G01 X-1.4159 Y1.1443  
G01 X-1.4098 Y1.1418  
G01 X-1.4033 Y1.1405  
G01 X-1.3967 Y1.1405  
G01 X-1.3902 Y1.1418  
G01 X-1.3841 Y1.1443  
G01 X-1.3786 Y1.1480  
G01 X-1.3740 Y1.1526  
G01 X-1.3703 Y1.1581  
G01 X-1.3678 Y1.1642  
G01 X-1.3665 Y1.1707  
G01 X-1.3665 Y1.2293  
G00 Z0.0500  
G00 X-1.4665 Y1.2293  
G01 Z-0.0035 F10    
G01 X-1.4678 Y1.2358  F20    
G01 X-1.4703 Y1.2419  
G01 X-1.4740 Y1.2474  
G01 X-1.4786 Y1.2520  
G01 X-1.4841 Y1.2557  
G01 X-1.4902 Y1.2582  
G01 X-1.4967 Y1.2595  
G01 X-1.5033 Y1.2595  
G01 X-1.5098 Y1.2582  
G01 X-1.5159 Y1.2557  
G01 X-1.5214 Y1.2520  
G01 X-1.5260 Y1.2474  
G01 X-1.5297 Y1.2419  
G01 X-1.5322 Y1.2358  
G01 X-1.5335 Y1.2293  
G01 X-1.5335 Y1.1707  
G01 X-1.5329 Y1.1679  
G01 X-1.5658 Y1.0913  
G01 X-1.7103 Y1.0335  
G01 X-1.7339 Y1.0335  
G01 X-1.7535 Y1.0139  
G01 X-1.7535 Y0.9861  
G01 X-1.7339 Y0.9665  
G01 X-1.7061 Y0.9665  
G01 X-1.6904 Y0.9822  
G01 X-1.5373 Y1.0435  
G01 X-1.5323 Y1.0455  
G01 X-1.5277 Y1.0484  
G01 X-1.5239 Y1.0522  
G01 X-1.5208 Y1.0567  
G01 X-1.5206 Y1.0571  
G01 X-1.5187 Y1.0617  
G01 X-1.4829 Y1.1452  
G01 X-1.4786 Y1.1480  
G01 X-1.4740 Y1.1526  
G01 X-1.4703 Y1.1581  
G01 X-1.4678 Y1.1642  
G01 X-1.4665 Y1.1707  
G01 X-1.4665 Y1.2293  
G00 Z0.0500  
G00 X-1.5665 Y1.2293  
G01 Z-0.0035 F10    
G01 X-1.5678 Y1.2358  F20    
G01 X-1.5703 Y1.2419  
G01 X-1.5740 Y1.2474  
G01 X-1.5786 Y1.2520  
G01 X-1.5841 Y1.2557  
G01 X-1.5902 Y1.2582  
G01 X-1.5967 Y1.2595  
G01 X-1.6033 Y1.2595  
G01 X-1.6098 Y1.2582  
G01 X-1.6159 Y1.2557  
G01 X-1.6214 Y1.2520  
G01 X-1.6260 Y1.2474  
G01 X-1.6297 Y1.2419  
G01 X-1.6322 Y1.2358  
G01 X-1.6335 Y1.2293  
G01 X-1.6335 Y1.2275  
G01 X-1.7001 Y1.2275  
G01 X-1.7061 Y1.2335  
G01 X-1.7339 Y1.2335  
G01 X-1.7535 Y1.2139  
G01 X-1.7535 Y1.1861  
G01 X-1.7339 Y1.1665  
G01 X-1.7061 Y1.1665  
G01 X-1.7001 Y1.1725  
G01 X-1.6335 Y1.1725  
G01 X-1.6335 Y1.1707  
G01 X-1.6322 Y1.1642  
G01 X-1.6297 Y1.1581  
G01 X-1.6260 Y1.1526  
G01 X-1.6214 Y1.1480  
G01 X-1.6159 Y1.1443  
G01 X-1.6098 Y1.1418  
G01 X-1.6033 Y1.1405  
G01 X-1.5967 Y1.1405  
G01 X-1.5902 Y1.1418  
G01 X-1.5841 Y1.1443  
G01 X-1.5786 Y1.1480  
G01 X-1.5740 Y1.1526  
G01 X-1.5703 Y1.1581  
G01 X-1.5678 Y1.1642  
G01 X-1.5665 Y1.1707  
G01 X-1.5665 Y1.2293  
G00 Z0.0500  
G00 X-1.5786 Y0.9520  
G01 Z-0.0035 F10    
G01 X-1.5841 Y0.9557  F20    
G01 X-1.5902 Y0.9582  
G01 X-1.5967 Y0.9595  
G01 X-1.6033 Y0.9595  
G01 X-1.6098 Y0.9582  
G01 X-1.6159 Y0.9557  
G01 X-1.6214 Y0.9520  
G01 X-1.6260 Y0.9474  
G01 X-1.6297 Y0.9419  
G01 X-1.6322 Y0.9358  
G01 X-1.6335 Y0.9293  
G01 X-1.6335 Y0.8707  
G01 X-1.6322 Y0.8642  
G01 X-1.6297 Y0.8581  
G01 X-1.6260 Y0.8526  
G01 X-1.6214 Y0.8480  
G01 X-1.6159 Y0.8443  
G01 X-1.6098 Y0.8418  
G01 X-1.6060 Y0.8410  
G01 X-1.5935 Y0.8097  
G01 X-1.5935 Y0.7861  
G01 X-1.5739 Y0.7665  
G01 X-1.5461 Y0.7665  
G01 X-1.5265 Y0.7861  
G01 X-1.5265 Y0.8139  
G01 X-1.5422 Y0.8296  
G01 X-1.5665 Y0.8903  
G01 X-1.5665 Y0.9293  
G01 X-1.5678 Y0.9358  
G01 X-1.5703 Y0.9419  
G01 X-1.5740 Y0.9474  
G01 X-1.5786 Y0.9520  
G00 Z0.0500  
G00 X-1.5260 Y0.9474  
G01 Z-0.0035 F10    
G01 X-1.5297 Y0.9419  F20    
G01 X-1.5322 Y0.9358  
G01 X-1.5335 Y0.9293  
G01 X-1.5335 Y0.8707  
G01 X-1.5322 Y0.8642  
G01 X-1.5297 Y0.8581  
G01 X-1.5260 Y0.8526  
G01 X-1.5214 Y0.8480  
G01 X-1.5159 Y0.8443  
G01 X-1.5098 Y0.8418  
G01 X-1.5045 Y0.8407  
G01 X-1.4735 Y0.7684  
G01 X-1.4735 Y0.7461  
G01 X-1.4539 Y0.7265  
G01 X-1.4261 Y0.7265  
G01 X-1.4065 Y0.7461  
G01 X-1.4065 Y0.7739  
G01 X-1.4232 Y0.7905  
G01 X-1.4665 Y0.8916  
G01 X-1.4665 Y0.9293  
G01 X-1.4678 Y0.9358  
G01 X-1.4703 Y0.9419  
G01 X-1.4740 Y0.9474  
G01 X-1.4786 Y0.9520  
G01 X-1.4841 Y0.9557  
G01 X-1.4902 Y0.9582  
G01 X-1.4967 Y0.9595  
G01 X-1.5033 Y0.9595  
G01 X-1.5098 Y0.9582  
G01 X-1.5159 Y0.9557  
G01 X-1.5214 Y0.9520  
G01 X-1.5260 Y0.9474  
G00 Z0.0500  
G00 X-1.4260 Y0.9474  
G01 Z-0.0035 F10    
G01 X-1.4297 Y0.9419  F20    
G01 X-1.4322 Y0.9358  
G01 X-1.4335 Y0.9293  
G01 X-1.4335 Y0.8707  
G01 X-1.4322 Y0.8642  
G01 X-1.4297 Y0.8581  
G01 X-1.4260 Y0.8526  
G01 X-1.4214 Y0.8480  
G01 X-1.4159 Y0.8443  
G01 X-1.4134 Y0.8433  
G01 X-1.3710 Y0.7700  
G01 X-1.3324 Y0.5865  
G01 X-1.3323 Y0.5860  
G01 X-1.3318 Y0.5838  
G01 X-1.3314 Y0.5817  
G01 X-1.3311 Y0.5812  
G01 X-1.3222 Y0.5452  
G01 X-1.3235 Y0.5439  
G01 X-1.3235 Y0.5161  
G01 X-1.3039 Y0.4965  
G01 X-1.2761 Y0.4965  
G01 X-1.2565 Y0.5161  
G01 X-1.2565 Y0.5439  
G01 X-1.2680 Y0.5554  
G01 X-1.2782 Y0.5962  
G01 X-1.3179 Y0.7847  
G01 X-1.3181 Y0.7863  
G01 X-1.3184 Y0.7873  
G01 X-1.3186 Y0.7883  
G01 X-1.3193 Y0.7899  
G01 X-1.3198 Y0.7914  
G01 X-1.3204 Y0.7923  
G01 X-1.3208 Y0.7933  
G01 X-1.3217 Y0.7947  
G01 X-1.3665 Y0.8720  
G01 X-1.3665 Y0.9293  
G01 X-1.3678 Y0.9358  
G01 X-1.3703 Y0.9419  
G01 X-1.3740 Y0.9474  
G01 X-1.3786 Y0.9520  
G01 X-1.3841 Y0.9557  
G01 X-1.3902 Y0.9582  
G01 X-1.3967 Y0.9595  
G01 X-1.4033 Y0.9595  
G01 X-1.4098 Y0.9582  
G01 X-1.4159 Y0.9557  
G01 X-1.4214 Y0.9520  
G01 X-1.4260 Y0.9474  
G00 Z0.0500  
G00 X-1.3260 Y0.9474  
G01 Z-0.0035 F10    
G01 X-1.3297 Y0.9419  F20    
G01 X-1.3322 Y0.9358  
G01 X-1.3335 Y0.9293  
G01 X-1.3335 Y0.8707  
G01 X-1.3322 Y0.8642  
G01 X-1.3297 Y0.8581  
G01 X-1.3260 Y0.8526  
G01 X-1.3214 Y0.8480  
G01 X-1.3159 Y0.8443  
G01 X-1.3098 Y0.8418  
G01 X-1.3033 Y0.8405  
G01 X-1.2967 Y0.8405  
G01 X-1.2902 Y0.8418  
G01 X-1.2841 Y0.8443  
G01 X-1.2786 Y0.8480  
G01 X-1.2740 Y0.8526  
G01 X-1.2703 Y0.8581  
G01 X-1.2678 Y0.8642  
G01 X-1.2665 Y0.8707  
G01 X-1.2665 Y0.9293  
G01 X-1.2678 Y0.9358  
G01 X-1.2703 Y0.9419  
G01 X-1.2740 Y0.9474  
G01 X-1.2786 Y0.9520  
G01 X-1.2841 Y0.9557  
G01 X-1.2902 Y0.9582  
G01 X-1.2967 Y0.9595  
G01 X-1.3033 Y0.9595  
G01 X-1.3098 Y0.9582  
G01 X-1.3159 Y0.9557  
G01 X-1.3214 Y0.9520  
G01 X-1.3260 Y0.9474  
G00 Z0.0500  
G00 X-1.0260 Y0.9474  
G01 Z-0.0035 F10    
G01 X-1.0297 Y0.9419  F20    
G01 X-1.0322 Y0.9358  
G01 X-1.0335 Y0.9293  
G01 X-1.0335 Y0.8707  
G01 X-1.0322 Y0.8642  
G01 X-1.0297 Y0.8581  
G01 X-1.0260 Y0.8526  
G01 X-1.0214 Y0.8480  
G01 X-1.0171 Y0.8451  
G01 X-1.0170 Y0.8446  
G01 X-1.0165 Y0.8420  
G01 X-1.0154 Y0.8395  
G01 X-1.0144 Y0.8370  
G01 X-1.0129 Y0.8348  
G01 X-0.9482 Y0.7378  
G01 X-0.9490 Y0.7338  
G01 X-0.9490 Y0.7262  
G01 X-0.9475 Y0.7186  
G01 X-0.9446 Y0.7115  
G01 X-0.9403 Y0.7051  
G01 X-0.9349 Y0.6997  
G01 X-0.9285 Y0.6954  
G01 X-0.9214 Y0.6925  
G01 X-0.9138 Y0.6910  
G01 X-0.9062 Y0.6910  
G01 X-0.8986 Y0.6925  
G01 X-0.8915 Y0.6954  
G01 X-0.8851 Y0.6997  
G01 X-0.8797 Y0.7051  
G01 X-0.8754 Y0.7115  
G01 X-0.8725 Y0.7186  
G01 X-0.8710 Y0.7262  
G01 X-0.8710 Y0.7338  
G01 X-0.8725 Y0.7414  
G01 X-0.8754 Y0.7485  
G01 X-0.8797 Y0.7549  
G01 X-0.8851 Y0.7603  
G01 X-0.8915 Y0.7646  
G01 X-0.8986 Y0.7675  
G01 X-0.9025 Y0.7683  
G01 X-0.9641 Y0.8607  
G01 X-0.9665 Y0.8727  
G01 X-0.9665 Y0.9293  
G01 X-0.9678 Y0.9358  
G01 X-0.9703 Y0.9419  
G01 X-0.9740 Y0.9474  
G01 X-0.9786 Y0.9520  
G01 X-0.9841 Y0.9557  
G01 X-0.9902 Y0.9582  
G01 X-0.9967 Y0.9595  
G01 X-1.0033 Y0.9595  
G01 X-1.0098 Y0.9582  
G01 X-1.0159 Y0.9557  
G01 X-1.0214 Y0.9520  
G01 X-1.0260 Y0.9474  
G00 Z0.0500  
G00 X-0.9260 Y0.9474  
G01 Z-0.0035 F10    
G01 X-0.9297 Y0.9419  F20    
G01 X-0.9322 Y0.9358  
G01 X-0.9335 Y0.9293  
G01 X-0.9335 Y0.8707  
G01 X-0.9322 Y0.8642  
G01 X-0.9297 Y0.8581  
G01 X-0.9260 Y0.8526  
G01 X-0.9214 Y0.8480  
G01 X-0.9159 Y0.8443  
G01 X-0.9098 Y0.8418  
G01 X-0.9033 Y0.8405  
G01 X-0.8967 Y0.8405  
G01 X-0.8902 Y0.8418  
G01 X-0.8841 Y0.8443  
G01 X-0.8786 Y0.8480  
G01 X-0.8742 Y0.8524  
G01 X-0.8171 Y0.8182  
G01 X-0.7222 Y0.7233  
G01 X-0.6876 Y0.6610  
G01 X-0.6890 Y0.6538  
G01 X-0.6890 Y0.6462  
G01 X-0.6875 Y0.6386  
G01 X-0.6846 Y0.6315  
G01 X-0.6803 Y0.6251  
G01 X-0.6775 Y0.6223  
G01 X-0.6775 Y0.5199  
G01 X-0.6835 Y0.5139  
G01 X-0.6835 Y0.4861  
G01 X-0.6775 Y0.4801  
G01 X-0.6775 Y0.3847  
G01 X-0.6796 Y0.3831  
G01 X-0.6847 Y0.3781  
G01 X-0.6889 Y0.3723  
G01 X-0.6922 Y0.3659  
G01 X-0.6944 Y0.3591  
G01 X-0.6955 Y0.3520  
G01 X-0.6955 Y0.3448  
G01 X-0.6944 Y0.3378  
G01 X-0.6922 Y0.3310  
G01 X-0.6889 Y0.3246  
G01 X-0.6847 Y0.3188  
G01 X-0.6796 Y0.3137  
G01 X-0.6738 Y0.3095  
G01 X-0.6675 Y0.3063  
G01 X-0.6607 Y0.3040  
G01 X-0.6536 Y0.3029  
G01 X-0.6464 Y0.3029  
G01 X-0.6393 Y0.3040  
G01 X-0.6325 Y0.3063  
G01 X-0.6262 Y0.3095  
G01 X-0.6204 Y0.3137  
G01 X-0.6153 Y0.3188  
G01 X-0.6111 Y0.3246  
G01 X-0.6078 Y0.3310  
G01 X-0.6056 Y0.3378  
G01 X-0.6045 Y0.3448  
G01 X-0.6045 Y0.3520  
G01 X-0.6056 Y0.3591  
G01 X-0.6078 Y0.3659  
G01 X-0.6111 Y0.3723  
G01 X-0.6153 Y0.3781  
G01 X-0.6204 Y0.3831  
G01 X-0.6225 Y0.3847  
G01 X-0.6225 Y0.4801  
G01 X-0.6165 Y0.4861  
G01 X-0.6165 Y0.5139  
G01 X-0.6225 Y0.5199  
G01 X-0.6225 Y0.6223  
G01 X-0.6197 Y0.6251  
G01 X-0.6154 Y0.6315  
G01 X-0.6125 Y0.6386  
G01 X-0.6110 Y0.6462  
G01 X-0.6110 Y0.6538  
G01 X-0.6125 Y0.6614  
G01 X-0.6154 Y0.6685  
G01 X-0.6197 Y0.6749  
G01 X-0.6251 Y0.6803  
G01 X-0.6315 Y0.6846  
G01 X-0.6386 Y0.6875  
G01 X-0.6395 Y0.6877  
G01 X-0.6752 Y0.7520  
G01 X-0.6756 Y0.7530  
G01 X-0.6765 Y0.7543  
G01 X-0.6773 Y0.7557  
G01 X-0.6780 Y0.7566  
G01 X-0.6786 Y0.7575  
G01 X-0.6798 Y0.7586  
G01 X-0.6808 Y0.7599  
G01 X-0.6817 Y0.7606  
G01 X-0.7791 Y0.8580  
G01 X-0.7795 Y0.8585  
G01 X-0.7810 Y0.8599  
G01 X-0.7825 Y0.8614  
G01 X-0.7830 Y0.8617  
G01 X-0.7835 Y0.8622  
G01 X-0.7853 Y0.8632  
G01 X-0.7870 Y0.8644  
G01 X-0.7876 Y0.8646  
G01 X-0.8665 Y0.9120  
G01 X-0.8665 Y0.9293  
G01 X-0.8678 Y0.9358  
G01 X-0.8703 Y0.9419  
G01 X-0.8740 Y0.9474  
G01 X-0.8786 Y0.9520  
G01 X-0.8841 Y0.9557  
G01 X-0.8902 Y0.9582  
G01 X-0.8967 Y0.9595  
G01 X-0.9033 Y0.9595  
G01 X-0.9098 Y0.9582  
G01 X-0.9159 Y0.9557  
G01 X-0.9214 Y0.9520  
G01 X-0.9260 Y0.9474  
G00 Z0.0500  
G00 X-1.0316 Y0.2945  
G01 Z-0.0035 F10    
G01 X-1.0684 Y0.2945  F20    
G01 X-1.0945 Y0.2684  
G01 X-1.0945 Y0.2316  
G01 X-1.0684 Y0.2055  
G01 X-1.0316 Y0.2055  
G01 X-1.0055 Y0.2316  
G01 X-1.0055 Y0.2684  
G01 X-1.0316 Y0.2945  
G00 Z0.0500  
G00 X-1.1316 Y0.2945  
G01 Z-0.0035 F10    
G01 X-1.1684 Y0.2945  F20    
G01 X-1.1945 Y0.2684  
G01 X-1.1945 Y0.2316  
G01 X-1.1684 Y0.2055  
G01 X-1.1316 Y0.2055  
G01 X-1.1055 Y0.2316  
G01 X-1.1055 Y0.2684  
G01 X-1.1316 Y0.2945  
G00 Z0.0500  
G00 X-1.1316 Y0.1945  
G01 Z-0.0035 F10    
G01 X-1.1684 Y0.1945  F20    
G01 X-1.1945 Y0.1684  
G01 X-1.1945 Y0.1316  
G01 X-1.1684 Y0.1055  
G01 X-1.1316 Y0.1055  
G01 X-1.1055 Y0.1316  
G01 X-1.1055 Y0.1684  
G01 X-1.1316 Y0.1945  
G00 Z0.0500  
G00 X-1.0945 Y0.1684  
G01 Z-0.0035 F10    
G01 X-1.0945 Y0.1316  F20    
G01 X-1.0684 Y0.1055  
G01 X-1.0316 Y0.1055  
G01 X-1.0055 Y0.1316  
G01 X-1.0055 Y0.1684  
G01 X-1.0316 Y0.1945  
G01 X-1.0684 Y0.1945  
G01 X-1.0945 Y0.1684  
G00 Z0.0500  
G00 X-1.2055 Y0.1684  
G01 Z-0.0035 F10    
G01 X-1.2225 Y0.1854  F20    
G01 X-1.2225 Y0.2146  
G01 X-1.2055 Y0.2316  
G01 X-1.2055 Y0.2684  
G01 X-1.2316 Y0.2945  
G01 X-1.2684 Y0.2945  
G01 X-1.2945 Y0.2684  
G01 X-1.2945 Y0.2316  
G01 X-1.2775 Y0.2146  
G01 X-1.2775 Y0.1854  
G01 X-1.2945 Y0.1684  
G01 X-1.2945 Y0.1316  
G01 X-1.2684 Y0.1055  
G01 X-1.2660 Y0.1055  
